src/cutvoke/assets/luts/cool.cube
# Created by CutVoke generate_luts.py
TITLE cool
LUT_3D_SIZE 33
DOMAIN_MIN 0.0 0.0 0.0
DOMAIN_MAX 1.0 1.0 1.0
0.000000 0.000000 0.000000
0.028750 0.000000 0.000000
0.057500 0.000000 0.000000
0.086250 0.000000 0.000000
0.115000 0.000000 0.000000
0.143750 0.000000 0.000000
0.172500 0.000000 0.000000
0.201250 0.000000 0.000000
0.230000 0.000000 0.000000
0.258750 0.000000 0.000000
0.287500 0.000000 0.000000
0.316250 0.000000 0.000000
0.345000 0.000000 0.000000
0.373750 0.000000 0.000000
0.402500 0.000000 0.000000
0.431250 0.000000 0.000000
0.460000 0.000000 0.000000
0.488750 0.000000 0.000000
0.517500 0.000000 0.000000
0.546250 0.000000 0.000000
0.575000 0.000000 0.000000
0.603750 0.000000 0.000000
0.632500 0.000000 0.000000
0.661250 0.000000 0.000000
0.690000 0.000000 0.000000
0.718750 0.000000 0.000000
0.747500 0.000000 0.000000
0.776250 0.000000 0.000000
0.805000 0.000000 0.000000
0.833750 0.000000 0.000000
0.862500 0.000000 0.000000
0.891250 0.000000 0.000000
0.920000 0.000000 0.000000
0.000000 0.031250 0.000000
0.028750 0.031250 0.000000
0.057500 0.031250 0.000000
0.086250 0.031250 0.000000
0.115000 0.031250 0.000000
0.143750 0.031250 0.000000
0.172500 0.031250 0.000000
0.201250 0.031250 0.000000
0.230000 0.031250 0.000000
0.258750 0.031250 0.000000
0.287500 0.031250 0.000000
0.316250 0.031250 0.000000
0.345000 0.031250 0.000000
0.373750 0.031250 0.000000
0.402500 0.031250 0.000000
0.431250 0.031250 0.000000
0.460000 0.031250 0.000000
0.488750 0.031250 0.000000
0.517500 0.031250 0.000000
0.546250 0.031250 0.000000
0.575000 0.031250 0.000000
0.603750 0.031250 0.000000
0.632500 0.031250 0.000000
0.661250 0.031250 0.000000
0.690000 0.031250 0.000000
0.718750 0.031250 0.000000
0.747500 0.031250 0.000000
0.776250 0.031250 0.000000
0.805000 0.031250 0.000000
0.833750 0.031250 0.000000
0.862500 0.031250 0.000000
0.891250 0.031250 0.000000
0.920000 0.031250 0.000000
0.000000 0.062500 0.000000
0.028750 0.062500 0.000000
0.057500 0.062500 0.000000
0.086250 0.062500 0.000000
0.115000 0.062500 0.000000
0.143750 0.062500 0.000000
0.172500 0.062500 0.000000
0.201250 0.062500 0.000000
0.230000 0.062500 0.000000
0.258750 0.062500 0.000000
0.287500 0.062500 0.000000
0.316250 0.062500 0.000000
0.345000 0.062500 0.000000
0.373750 0.062500 0.000000
0.402500 0.062500 0.000000
0.431250 0.062500 0.000000
0.460000 0.062500 0.000000
0.488750 0.062500 0.000000
0.517500 0.062500 0.000000
0.546250 0.062500 0.000000
0.575000 0.062500 0.000000
0.603750 0.062500 0.000000
0.632500 0.062500 0.000000
0.661250 0.062500 0.000000
0.690000 0.062500 0.000000
0.718750 0.062500 0.000000
0.747500 0.062500 0.000000
0.776250 0.062500 0.000000
0.805000 0.062500 0.000000
0.833750 0.062500 0.000000
0.862500 0.062500 0.000000
0.891250 0.062500 0.000000
0.920000 0.062500 0.000000
0.000000 0.093750 0.000000
0.028750 0.093750 0.000000
0.057500 0.093750 0.000000
0.086250 0.093750 0.000000
0.115000 0.093750 0.000000
0.143750 0.093750 0.000000
0.172500 0.093750 0.000000
0.201250 0.093750 0.000000
0.230000 0.093750 0.000000
0.258750 0.093750 0.000000
0.287500 0.093750 0.000000
0.316250 0.093750 0.000000
0.345000 0.093750 0.000000
0.373750 0.093750 0.000000
0.402500 0.093750 0.000000
0.431250 0.093750 0.000000
0.460000 0.093750 0.000000
0.488750 0.093750 0.000000
0.517500 0.093750 0.000000
0.546250 0.093750 0.000000
0.575000 0.093750 0.000000
0.603750 0.093750 0.000000
0.632500 0.093750 0.000000
0.661250 0.093750 0.000000
0.690000 0.093750 0.000000
0.718750 0.093750 0.000000
0.747500 0.093750 0.000000
0.776250 0.093750 0.000000
0.805000 0.093750 0.000000
0.833750 0.093750 0.000000
0.862500 0.093750 0.000000
0.891250 0.093750 0.000000
0.920000 0.093750 0.000000
0.000000 0.125000 0.000000
0.028750 0.125000 0.000000
0.057500 0.125000 0.000000
0.086250 0.125000 0.000000
0.115000 0.125000 0.000000
0.143750 0.125000 0.000000
0.172500 0.125000 0.000000
0.201250 0.125000 0.000000
0.230000 0.125000 0.000000
0.258750 0.125000 0.000000
0.287500 0.125000 0.000000
0.316250 0.125000 0.000000
0.345000 0.125000 0.000000
0.373750 0.125000 0.000000
0.402500 0.125000 0.000000
0.431250 0.125000 0.000000
0.460000 0.125000 0.000000
0.488750 0.125000 0.000000
0.517500 0.125000 0.000000
0.546250 0.125000 0.000000
0.575000 0.125000 0.000000
0.603750 0.125000 0.000000
0.632500 0.125000 0.000000
0.661250 0.125000 0.000000
0.690000 0.125000 0.000000
0.718750 0.125000 0.000000
0.747500 0.125000 0.000000
0.776250 0.125000 0.000000
0.805000 0.125000 0.000000
0.833750 0.125000 0.000000
0.862500 0.125000 0.000000
0.891250 0.125000 0.000000
0.920000 0.125000 0.000000
0.000000 0.156250 0.000000
0.028750 0.156250 0.000000
0.057500 0.156250 0.000000
0.086250 0.156250 0.000000
0.115000 0.156250 0.000000
0.143750 0.156250 0.000000
0.172500 0.156250 0.000000
0.201250 0.156250 0.000000
0.230000 0.156250 0.000000
0.258750 0.156250 0.000000
0.287500 0.156250 0.000000
0.316250 0.156250 0.000000
0.345000 0.156250 0.000000
0.373750 0.156250 0.000000
0.402500 0.156250 0.000000
0.431250 0.156250 0.000000
0.460000 0.156250 0.000000
0.488750 0.156250 0.000000
0.517500 0.156250 0.000000
0.546250 0.156250 0.000000
0.575000 0.156250 0.000000
0.603750 0.156250 0.000000
0.632500 0.156250 0.000000
0.661250 0.156250 0.000000
0.690000 0.156250 0.000000
0.718750 0.156250 0.000000
0.747500 0.156250 0.000000
0.776250 0.156250 0.000000
0.805000 0.156250 0.000000
0.833750 0.156250 0.000000
0.862500 0.156250 0.000000
0.891250 0.156250 0.000000
0.920000 0.156250 0.000000
0.000000 0.187500 0.000000
0.028750 0.187500 0.000000
0.057500 0.187500 0.000000
0.086250 0.187500 0.000000
0.115000 0.187500 0.000000
0.143750 0.187500 0.000000
0.172500 0.187500 0.000000
0.201250 0.187500 0.000000
0.230000 0.187500 0.000000
0.258750 0.187500 0.000000
0.287500 0.187500 0.000000
0.316250 0.187500 0.000000
0.345000 0.187500 0.000000
0.373750 0.187500 0.000000
0.402500 0.187500 0.000000
0.431250 0.187500 0.000000
0.460000 0.187500 0.000000
0.488750 0.187500 0.000000
0.517500 0.187500 0.000000
0.546250 0.187500 0.000000
0.575000 0.187500 0.000000
0.603750 0.187500 0.000000
0.632500 0.187500 0.000000
0.661250 0.187500 0.000000
0.690000 0.187500 0.000000
0.718750 0.187500 0.000000
0.747500 0.187500 0.000000
0.776250 0.187500 0.000000
0.805000 0.187500 0.000000
0.833750 0.187500 0.000000
0.862500 0.187500 0.000000
0.891250 0.187500 0.000000
0.920000 0.187500 0.000000
0.000000 0.218750 0.000000
0.028750 0.218750 0.000000
0.057500 0.218750 0.000000
0.086250 0.218750 0.000000
0.115000 0.218750 0.000000
0.143750 0.218750 0.000000
0.172500 0.218750 0.000000
0.201250 0.218750 0.000000
0.230000 0.218750 0.000000
0.258750 0.218750 0.000000
0.287500 0.218750 0.000000
0.316250 0.218750 0.000000
0.345000 0.218750 0.000000
0.373750 0.218750 0.000000
0.402500 0.218750 0.000000
0.431250 0.218750 0.000000
0.460000 0.218750 0.000000
0.488750 0.218750 0.000000
0.517500 0.218750 0.000000
0.546250 0.218750 0.000000
0.575000 0.218750 0.000000
0.603750 0.218750 0.000000
0.632500 0.218750 0.000000
0.661250 0.218750 0.000000
0.690000 0.218750 0.000000
0.718750 0.218750 0.000000
0.747500 0.218750 0.000000
0.776250 0.218750 0.000000
0.805000 0.218750 0.000000
0.833750 0.218750 0.000000
0.862500 0.218750 0.000000
0.891250 0.218750 0.000000
0.920000 0.218750 0.000000
0.000000 0.250000 0.000000
0.028750 0.250000 0.000000
0.057500 0.250000 0.000000
0.086250 0.250000 0.000000
0.115000 0.250000 0.000000
0.143750 0.250000 0.000000
0.172500 0.250000 0.000000
0.201250 0.250000 0.000000
0.230000 0.250000 0.000000
0.258750 0.250000 0.000000
0.287500 0.250000 0.000000
0.316250 0.250000 0.000000
0.345000 0.250000 0.000000
0.373750 0.250000 0.000000
0.402500 0.250000 0.000000
0.431250 0.250000 0.000000
0.460000 0.250000 0.000000
0.488750 0.250000 0.000000
0.517500 0.250000 0.000000
0.546250 0.250000 0.000000
0.575000 0.250000 0.000000
0.603750 0.250000 0.000000
0.632500 0.250000 0.000000
0.661250 0.250000 0.000000
0.690000 0.250000 0.000000
0.718750 0.250000 0.000000
0.747500 0.250000 0.000000
0.776250 0.250000 0.000000
0.805000 0.250000 0.000000
0.833750 0.250000 0.000000
0.862500 0.250000 0.000000
0.891250 0.250000 0.000000
0.920000 0.250000 0.000000
0.000000 0.281250 0.000000
0.028750 0.281250 0.000000
0.057500 0.281250 0.000000
0.086250 0.281250 0.000000
0.115000 0.281250 0.000000
0.143750 0.281250 0.000000
0.172500 0.281250 0.000000
0.201250 0.281250 0.000000
0.230000 0.281250 0.000000
0.258750 0.281250 0.000000
0.287500 0.281250 0.000000
0.316250 0.281250 0.000000
0.345000 0.281250 0.000000
0.373750 0.281250 0.000000
0.402500 0.281250 0.000000
0.431250 0.281250 0.000000
0.460000 0.281250 0.000000
0.488750 0.281250 0.000000
0.517500 0.281250 0.000000
0.546250 0.281250 0.000000
0.575000 0.281250 0.000000
0.603750 0.281250 0.000000
0.632500 0.281250 0.000000
0.661250 0.281250 0.000000
0.690000 0.281250 0.000000
0.718750 0.281250 0.000000
0.747500 0.281250 0.000000
0.776250 0.281250 0.000000
0.805000 0.281250 0.000000
0.833750 0.281250 0.000000
0.862500 0.281250 0.000000
0.891250 0.281250 0.000000
0.920000 0.281250 0.000000
0.000000 0.312500 0.000000
0.028750 0.312500 0.000000
0.057500 0.312500 0.000000
0.086250 0.312500 0.000000
0.115000 0.312500 0.000000
0.143750 0.312500 0.000000
0.172500 0.312500 0.000000
0.201250 0.312500 0.000000
0.230000 0.312500 0.000000
0.258750 0.312500 0.000000
0.287500 0.312500 0.000000
0.316250 0.312500 0.000000
0.345000 0.312500 0.000000
0.373750 0.312500 0.000000
0.402500 0.312500 0.000000
0.431250 0.312500 0.000000
0.460000 0.312500 0.000000
0.488750 0.312500 0.000000
0.517500 0.312500 0.000000
0.546250 0.312500 0.000000
0.575000 0.312500 0.000000
0.603750 0.312500 0.000000
0.632500 0.312500 0.000000
0.661250 0.312500 0.000000
0.690000 0.312500 0.000000
0.718750 0.312500 0.000000
0.747500 0.312500 0.000000
0.776250 0.312500 0.000000
0.805000 0.312500 0.000000
0.833750 0.312500 0.000000
0.862500 0.312500 0.000000
0.891250 0.312500 0.000000
0.920000 0.312500 0.000000
0.000000 0.343750 0.000000
0.028750 0.343750 0.000000
0.057500 0.343750 0.000000
0.086250 0.343750 0.000000
0.115000 0.343750 0.000000
0.143750 0.343750 0.000000
0.172500 0.343750 0.000000
0.201250 0.343750 0.000000
0.230000 0.343750 0.000000
0.258750 0.343750 0.000000
0.287500 0.343750 0.000000
0.316250 0.343750 0.000000
0.345000 0.343750 0.000000
0.373750 0.343750 0.000000
0.402500 0.343750 0.000000
0.431250 0.343750 0.000000
0.460000 0.343750 0.000000
0.488750 0.343750 0.000000
0.517500 0.343750 0.000000
0.546250 0.343750 0.000000
0.575000 0.343750 0.000000
0.603750 0.343750 0.000000
0.632500 0.343750 0.000000
0.661250 0.343750 0.000000
0.690000 0.343750 0.000000
0.718750 0.343750 0.000000
0.747500 0.343750 0.000000
0.776250 0.343750 0.000000
0.805000 0.343750 0.000000
0.833750 0.343750 0.000000
0.862500 0.343750 0.000000
0.891250 0.343750 0.000000
0.920000 0.343750 0.000000
0.000000 0.375000 0.000000
0.028750 0.375000 0.000000
0.057500 0.375000 0.000000
0.086250 0.375000 0.000000
0.115000 0.375000 0.000000
0.143750 0.375000 0.000000
0.172500 0.375000 0.000000
0.201250 0.375000 0.000000
0.230000 0.375000 0.000000
0.258750 0.375000 0.000000
0.287500 0.375000 0.000000
0.316250 0.375000 0.000000
0.345000 0.375000 0.000000
0.373750 0.375000 0.000000
0.402500 0.375000 0.000000
0.431250 0.375000 0.000000
0.460000 0.375000 0.000000
0.488750 0.375000 0.000000
0.517500 0.375000 0.000000
0.546250 0.375000 0.000000
0.575000 0.375000 0.000000
0.603750 0.375000 0.000000
0.632500 0.375000 0.000000
0.661250 0.375000 0.000000
0.690000 0.375000 0.000000
0.718750 0.375000 0.000000
0.747500 0.375000 0.000000
0.776250 0.375000 0.000000
0.805000 0.375000 0.000000
0.833750 0.375000 0.000000
0.862500 0.375000 0.000000
0.891250 0.375000 0.000000
0.920000 0.375000 0.000000
0.000000 0.406250 0.000000
0.028750 0.406250 0.000000
0.057500 0.406250 0.000000
0.086250 0.406250 0.000000
0.115000 0.406250 0.000000
0.143750 0.406250 0.000000
0.172500 0.406250 0.000000
0.201250 0.406250 0.000000
0.230000 0.406250 0.000000
0.258750 0.406250 0.000000
0.287500 0.406250 0.000000
0.316250 0.406250 0.000000
0.345000 0.406250 0.000000
0.373750 0.406250 0.000000
0.402500 0.406250 0.000000
0.431250 0.406250 0.000000
0.460000 0.406250 0.000000
0.488750 0.406250 0.000000
0.517500 0.406250 0.000000
0.546250 0.406250 0.000000
0.575000 0.406250 0.000000
0.603750 0.406250 0.000000
0.632500 0.406250 0.000000
0.661250 0.406250 0.000000
0.690000 0.406250 0.000000
0.718750 0.406250 0.000000
0.747500 0.406250 0.000000
0.776250 0.406250 0.000000
0.805000 0.406250 0.000000
0.833750 0.406250 0.000000
0.862500 0.406250 0.000000
0.891250 0.406250 0.000000
0.920000 0.406250 0.000000
0.000000 0.437500 0.000000
0.028750 0.437500 0.000000
0.057500 0.437500 0.000000
0.086250 0.437500 0.000000
0.115000 0.437500 0.000000
0.143750 0.437500 0.000000
0.172500 0.437500 0.000000
0.201250 0.437500 0.000000
0.230000 0.437500 0.000000
0.258750 0.437500 0.000000
0.287500 0.437500 0.000000
0.316250 0.437500 0.000000
0.345000 0.437500 0.000000
0.373750 0.437500 0.000000
0.402500 0.437500 0.000000
0.431250 0.437500 0.000000
0.460000 0.437500 0.000000
0.488750 0.437500 0.000000
0.517500 0.437500 0.000000
0.546250 0.437500 0.000000
0.575000 0.437500 0.000000
0.603750 0.437500 0.000000
0.632500 0.437500 0.000000
0.661250 0.437500 0.000000
0.690000 0.437500 0.000000
0.718750 0.437500 0.000000
0.747500 0.437500 0.000000
0.776250 0.437500 0.000000
0.805000 0.437500 0.000000
0.833750 0.437500 0.000000
0.862500 0.437500 0.000000
0.891250 0.437500 0.000000
0.920000 0.437500 0.000000
0.000000 0.468750 0.000000
0.028750 0.468750 0.000000
0.057500 0.468750 0.000000
0.086250 0.468750 0.000000
0.115000 0.468750 0.000000
0.143750 0.468750 0.000000
0.172500 0.468750 0.000000
0.201250 0.468750 0.000000
0.230000 0.468750 0.000000
0.258750 0.468750 0.000000
0.287500 0.468750 0.000000
0.316250 0.468750 0.000000
0.345000 0.468750 0.000000
0.373750 0.468750 0.000000
0.402500 0.468750 0.000000
0.431250 0.468750 0.000000
0.460000 0.468750 0.000000
0.488750 0.468750 0.000000
0.517500 0.468750 0.000000
0.546250 0.468750 0.000000
0.575000 0.468750 0.000000
0.603750 0.468750 0.000000
0.632500 0.468750 0.000000
0.661250 0.468750 0.000000
0.690000 0.468750 0.000000
0.718750 0.468750 0.000000
0.747500 0.468750 0.000000
0.776250 0.468750 0.000000
0.805000 0.468750 0.000000
0.833750 0.468750 0.000000
0.862500 0.468750 0.000000
0.891250 0.468750 0.000000
0.920000 0.468750 0.000000
0.000000 0.500000 0.000000
0.028750 0.500000 0.000000
0.057500 0.500000 0.000000
0.086250 0.500000 0.000000
0.115000 0.500000 0.000000
0.143750 0.500000 0.000000
0.172500 0.500000 0.000000
0.201250 0.500000 0.000000
0.230000 0.500000 0.000000
0.258750 0.500000 0.000000
0.287500 0.500000 0.000000
0.316250 0.500000 0.000000
0.345000 0.500000 0.000000
0.373750 0.500000 0.000000
0.402500 0.500000 0.000000
0.431250 0.500000 0.000000
0.460000 0.500000 0.000000
0.488750 0.500000 0.000000
0.517500 0.500000 0.000000
0.546250 0.500000 0.000000
0.575000 0.500000 0.000000
0.603750 0.500000 0.000000
0.632500 0.500000 0.000000
0.661250 0.500000 0.000000
0.690000 0.500000 0.000000
0.718750 0.500000 0.000000
0.747500 0.500000 0.000000
0.776250 0.500000 0.000000
0.805000 0.500000 0.000000
0.833750 0.500000 0.000000
0.862500 0.500000 0.000000
0.891250 0.500000 0.000000
0.920000 0.500000 0.000000
0.000000 0.531250 0.000000
0.028750 0.531250 0.000000
0.057500 0.531250 0.000000
0.086250 0.531250 0.000000
0.115000 0.531250 0.000000
0.143750 0.531250 0.000000
0.172500 0.531250 0.000000
0.201250 0.531250 0.000000
0.230000 0.531250 0.000000
0.258750 0.531250 0.000000
0.287500 0.531250 0.000000
0.316250 0.531250 0.000000
0.345000 0.531250 0.000000
0.373750 0.531250 0.000000
0.402500 0.531250 0.000000
0.431250 0.531250 0.000000
0.460000 0.531250 0.000000
0.488750 0.531250 0.000000
0.517500 0.531250 0.000000
0.546250 0.531250 0.000000
0.575000 0.531250 0.000000
0.603750 0.531250 0.000000
0.632500 0.531250 0.000000
0.661250 0.531250 0.000000
0.690000 0.531250 0.000000
0.718750 0.531250 0.000000
0.747500 0.531250 0.000000
0.776250 0.531250 0.000000
0.805000 0.531250 0.000000
0.833750 0.531250 0.000000
0.862500 0.531250 0.000000
0.891250 0.531250 0.000000
0.920000 0.531250 0.000000
0.000000 0.562500 0.000000
0.028750 0.562500 0.000000
0.057500 0.562500 0.000000
0.086250 0.562500 0.000000
0.115000 0.562500 0.000000
0.143750 0.562500 0.000000
0.172500 0.562500 0.000000
0.201250 0.562500 0.000000
0.230000 0.562500 0.000000
0.258750 0.562500 0.000000
0.287500 0.562500 0.000000
0.316250 0.562500 0.000000
0.345000 0.562500 0.000000
0.373750 0.562500 0.000000
0.402500 0.562500 0.000000
0.431250 0.562500 0.000000
0.460000 0.562500 0.000000
0.488750 0.562500 0.000000
0.517500 0.562500 0.000000
0.546250 0.562500 0.000000
0.575000 0.562500 0.000000
0.603750 0.562500 0.000000
0.632500 0.562500 0.000000
0.661250 0.562500 0.000000
0.690000 0.562500 0.000000
0.718750 0.562500 0.000000
0.747500 0.562500 0.000000
0.776250 0.562500 0.000000
0.805000 0.562500 0.000000
0.833750 0.562500 0.000000
0.862500 0.562500 0.000000
0.891250 0.562500 0.000000
0.920000 0.562500 0.000000
0.000000 0.593750 0.000000
0.028750 0.593750 0.000000
0.057500 0.593750 0.000000
0.086250 0.593750 0.000000
0.115000 0.593750 0.000000
0.143750 0.593750 0.000000
0.172500 0.593750 0.000000
0.201250 0.593750 0.000000
0.230000 0.593750 0.000000
0.258750 0.593750 0.000000
0.287500 0.593750 0.000000
0.316250 0.593750 0.000000
0.345000 0.593750 0.000000
0.373750 0.593750 0.000000
0.402500 0.593750 0.000000
0.431250 0.593750 0.000000
0.460000 0.593750 0.000000
0.488750 0.593750 0.000000
0.517500 0.593750 0.000000
0.546250 0.593750 0.000000
0.575000 0.593750 0.000000
0.603750 0.593750 0.000000
0.632500 0.593750 0.000000
0.661250 0.593750 0.000000
0.690000 0.593750 0.000000
0.718750 0.593750 0.000000
0.747500 0.593750 0.000000
0.776250 0.593750 0.000000
0.805000 0.593750 0.000000
0.833750 0.593750 0.000000
0.862500 0.593750 0.000000
0.891250 0.593750 0.000000
0.920000 0.593750 0.000000
0.000000 0.625000 0.000000
0.028750 0.625000 0.000000
0.057500 0.625000 0.000000
0.086250 0.625000 0.000000
0.115000 0.625000 0.000000
0.143750 0.625000 0.000000
0.172500 0.625000 0.000000
0.201250 0.625000 0.000000
0.230000 0.625000 0.000000
0.258750 0.625000 0.000000
0.287500 0.625000 0.000000
0.316250 0.625000 0.000000
0.345000 0.625000 0.000000
0.373750 0.625000 0.000000
0.402500 0.625000 0.000000
0.431250 0.625000 0.000000
0.460000 0.625000 0.000000
0.488750 0.625000 0.000000
0.517500 0.625000 0.000000
0.546250 0.625000 0.000000
0.575000 0.625000 0.000000
0.603750 0.625000 0.000000
0.632500 0.625000 0.000000
0.661250 0.625000 0.000000
0.690000 0.625000 0.000000
0.718750 0.625000 0.000000
0.747500 0.625000 0.000000
0.776250 0.625000 0.000000
0.805000 0.625000 0.000000
0.833750 0.625000 0.000000
0.862500 0.625000 0.000000
0.891250 0.625000 0.000000
0.920000 0.625000 0.000000
0.000000 0.656250 0.000000
0.028750 0.656250 0.000000
0.057500 0.656250 0.000000
0.086250 0.656250 0.000000
0.115000 0.656250 0.000000
0.143750 0.656250 0.000000
0.172500 0.656250 0.000000
0.201250 0.656250 0.000000
0.230000 0.656250 0.000000
0.258750 0.656250 0.000000
0.287500 0.656250 0.000000
0.316250 0.656250 0.000000
0.345000 0.656250 0.000000
0.373750 0.656250 0.000000
0.402500 0.656250 0.000000
0.431250 0.656250 0.000000
0.460000 0.656250 0.000000
0.488750 0.656250 0.000000
0.517500 0.656250 0.000000
0.546250 0.656250 0.000000
0.575000 0.656250 0.000000
0.603750 0.656250 0.000000
0.632500 0.656250 0.000000
0.661250 0.656250 0.000000
0.690000 0.656250 0.000000
0.718750 0.656250 0.000000
0.747500 0.656250 0.000000
0.776250 0.656250 0.000000
0.805000 0.656250 0.000000
0.833750 0.656250 0.000000
0.862500 0.656250 0.000000
0.891250 0.656250 0.000000
0.920000 0.656250 0.000000
0.000000 0.687500 0.000000
0.028750 0.687500 0.000000
0.057500 0.687500 0.000000
0.086250 0.687500 0.000000
0.115000 0.687500 0.000000
0.143750 0.687500 0.000000
0.172500 0.687500 0.000000
0.201250 0.687500 0.000000
0.230000 0.687500 0.000000
0.258750 0.687500 0.000000
0.287500 0.687500 0.000000
0.316250 0.687500 0.000000
0.345000 0.687500 0.000000
0.373750 0.687500 0.000000
0.402500 0.687500 0.000000
0.431250 0.687500 0.000000
0.460000 0.687500 0.000000
0.488750 0.687500 0.000000
0.517500 0.687500 0.000000
0.546250 0.687500 0.000000
0.575000 0.687500 0.000000
0.603750 0.687500 0.000000
0.632500 0.687500 0.000000
0.661250 0.687500 0.000000
0.690000 0.687500 0.000000
0.718750 0.687500 0.000000
0.747500 0.687500 0.000000
0.776250 0.687500 0.000000
0.805000 0.687500 0.000000
0.833750 0.687500 0.000000
0.862500 0.687500 0.000000
0.891250 0.687500 0.000000
0.920000 0.687500 0.000000
0.000000 0.718750 0.000000
0.028750 0.718750 0.000000
0.057500 0.718750 0.000000
0.086250 0.718750 0.000000
0.115000 0.718750 0.000000
0.143750 0.718750 0.000000
0.172500 0.718750 0.000000
0.201250 0.718750 0.000000
0.230000 0.718750 0.000000
0.258750 0.718750 0.000000
0.287500 0.718750 0.000000
0.316250 0.718750 0.000000
0.345000 0.718750 0.000000
0.373750 0.718750 0.000000
0.402500 0.718750 0.000000
0.431250 0.718750 0.000000
0.460000 0.718750 0.000000
0.488750 0.718750 0.000000
0.517500 0.718750 0.000000
0.546250 0.718750 0.000000
0.575000 0.718750 0.000000
0.603750 0.718750 0.000000
0.632500 0.718750 0.000000
0.661250 0.718750 0.000000
0.690000 0.718750 0.000000
0.718750 0.718750 0.000000
0.747500 0.718750 0.000000
0.776250 0.718750 0.000000
0.805000 0.718750 0.000000
0.833750 0.718750 0.000000
0.862500 0.718750 0.000000
0.891250 0.718750 0.000000
0.920000 0.718750 0.000000
0.000000 0.750000 0.000000
0.028750 0.750000 0.000000
0.057500 0.750000 0.000000
0.086250 0.750000 0.000000
0.115000 0.750000 0.000000
0.143750 0.750000 0.000000
0.172500 0.750000 0.000000
0.201250 0.750000 0.000000
0.230000 0.750000 0.000000
0.258750 0.750000 0.000000
0.287500 0.750000 0.000000
0.316250 0.750000 0.000000
0.345000 0.750000 0.000000
0.373750 0.750000 0.000000
0.402500 0.750000 0.000000
0.431250 0.750000 0.000000
0.460000 0.750000 0.000000
0.488750 0.750000 0.000000
0.517500 0.750000 0.000000
0.546250 0.750000 0.000000
0.575000 0.750000 0.000000
0.603750 0.750000 0.000000
0.632500 0.750000 0.000000
0.661250 0.750000 0.000000
0.690000 0.750000 0.000000
0.718750 0.750000 0.000000
0.747500 0.750000 0.000000
0.776250 0.750000 0.000000
0.805000 0.750000 0.000000
0.833750 0.750000 0.000000
0.862500 0.750000 0.000000
0.891250 0.750000 0.000000
0.920000 0.750000 0.000000
0.000000 0.781250 0.000000
0.028750 0.781250 0.000000
0.057500 0.781250 0.000000
0.086250 0.781250 0.000000
0.115000 0.781250 0.000000
0.143750 0.781250 0.000000
0.172500 0.781250 0.000000
0.201250 0.781250 0.000000
0.230000 0.781250 0.000000
0.258750 0.781250 0.000000
0.287500 0.781250 0.000000
0.316250 0.781250 0.000000
0.345000 0.781250 0.000000
0.373750 0.781250 0.000000
0.402500 0.781250 0.000000
0.431250 0.781250 0.000000
0.460000 0.781250 0.000000
0.488750 0.781250 0.000000
0.517500 0.781250 0.000000
0.546250 0.781250 0.000000
0.575000 0.781250 0.000000
0.603750 0.781250 0.000000
0.632500 0.781250 0.000000
0.661250 0.781250 0.000000
0.690000 0.781250 0.000000
0.718750 0.781250 0.000000
0.747500 0.781250 0.000000
0.776250 0.781250 0.000000
0.805000 0.781250 0.000000
0.833750 0.781250 0.000000
0.862500 0.781250 0.000000
0.891250 0.781250 0.000000
0.920000 0.781250 0.000000
0.000000 0.812500 0.000000
0.028750 0.812500 0.000000
0.057500 0.812500 0.000000
0.086250 0.812500 0.000000
0.115000 0.812500 0.000000
0.143750 0.812500 0.000000
0.172500 0.812500 0.000000
0.201250 0.812500 0.000000
0.230000 0.812500 0.000000
0.258750 0.812500 0.000000
0.287500 0.812500 0.000000
0.316250 0.812500 0.000000
0.345000 0.812500 0.000000
0.373750 0.812500 0.000000
0.402500 0.812500 0.000000
0.431250 0.812500 0.000000
0.460000 0.812500 0.000000
0.488750 0.812500 0.000000
0.517500 0.812500 0.000000
0.546250 0.812500 0.000000
0.575000 0.812500 0.000000
0.603750 0.812500 0.000000
0.632500 0.812500 0.000000
0.661250 0.812500 0.000000
0.690000 0.812500 0.000000
0.718750 0.812500 0.000000
