src/cutvoke/assets/luts/cool.cube
# Created by CutVoke generate_luts.py
TITLE cool
LUT_3D_SIZE 9
DOMAIN_MIN 0.0 0.0 0.0
DOMAIN_MAX 1.0 1.0 1.0
0.000000 0.000000 0.000000
0.115000 0.000000 0.000000
0.230000 0.000000 0.000000
0.345000 0.000000 0.000000
0.460000 0.000000 0.000000
0.575000 0.000000 0.000000
0.690000 0.000000 0.000000
0.805000 0.000000 0.000000
0.920000 0.000000 0.000000
0.000000 0.125000 0.000000
0.115000 0.125000 0.000000
0.230000 0.125000 0.000000
0.345000 0.125000 0.000000
0.460000 0.125000 0.000000
0.575000 0.125000 0.000000
0.690000 0.125000 0.000000
0.805000 0.125000 0.000000
0.920000 0.125000 0.000000
0.000000 0.250000 0.000000
0.115000 0.250000 0.000000
0.230000 0.250000 0.000000
0.345000 0.250000 0.000000
0.460000 0.250000 0.000000
0.575000 0.250000 0.000000
0.690000 0.250000 0.000000
0.805000 0.250000 0.000000
0.920000 0.250000 0.000000
0.000000 0.375000 0.000000
0.115000 0.375000 0.000000
0.230000 0.375000 0.000000
0.345000 0.375000 0.000000
0.460000 0.375000 0.000000
0.575000 0.375000 0.000000
0.690000 0.375000 0.000000
0.805000 0.375000 0.000000
0.920000 0.375000 0.000000
0.000000 0.500000 0.000000
0.115000 0.500000 0.000000
0.230000 0.500000 0.000000
0.345000 0.500000 0.000000
0.460000 0.500000 0.000000
0.575000 0.500000 0.000000
0.690000 0.500000 0.000000
0.805000 0.500000 0.000000
0.920000 0.500000 0.000000
0.000000 0.625000 0.000000
0.115000 0.625000 0.000000
0.230000 0.625000 0.000000
0.345000 0.625000 0.000000
0.460000 0.625000 0.000000
0.575000 0.625000 0.000000
0.690000 0.625000 0.000000
0.805000 0.625000 0.000000
0.920000 0.625000 0.000000
0.000000 0.750000 0.000000
0.115000 0.750000 0.000000
0.230000 0.750000 0.000000
0.345000 0.750000 0.000000
0.460000 0.750000 0.000000
0.575000 0.750000 0.000000
0.690000 0.750000 0.000000
0.805000 0.750000 0.000000
0.920000 0.750000 0.000000
0.000000 0.875000 0.000000
0.115000 0.875000 0.000000
0.230000 0.875000 0.000000
0.345000 0.875000 0.000000
0.460000 0.875000 0.000000
0.575000 0.875000 0.000000
0.690000 0.875000 0.000000
0.805000 0.875000 0.000000
0.920000 0.875000 0.000000
0.000000 1.000000 0.000000
0.115000 1.000000 0.000000
0.230000 1.000000 0.000000
0.345000 1.000000 0.000000
0.460000 1.000000 0.000000
0.575000 1.000000 0.000000
0.690000 1.000000 0.000000
0.805000 1.000000 0.000000
0.920000 1.000000 0.000000
0.000000 0.000000 0.140000
0.115000 0.000000 0.140000
0.230000 0.000000 0.140000
0.345000 0.000000 0.140000
0.460000 0.000000 0.140000
0.575000 0.000000 0.140000
0.690000 0.000000 0.140000
0.805000 0.000000 0.140000
0.920000 0.000000 0.140000
0.000000 0.125000 0.140000
0.115000 0.125000 0.140000
0.230000 0.125000 0.140000
0.345000 0.125000 0.140000
0.460000 0.125000 0.140000
0.575000 0.125000 0.140000
0.690000 0.125000 0.140000
0.805000 0.125000 0.140000
0.920000 0.125000 0.140000
0.000000 0.250000 0.140000
0.115000 0.250000 0.140000
0.230000 0.250000 0.140000
0.345000 0.250000 0.140000
0.460000 0.250000 0.140000
0.575000 0.250000 0.140000
0.690000 0.250000 0.140000
0.805000 0.250000 0.140000
0.920000 0.250000 0.140000
0.000000 0.375000 0.140000
0.115000 0.375000 0.140000
0.230000 0.375000 0.140000
0.345000 0.375000 0.140000
0.460000 0.375000 0.140000
0.575000 0.375000 0.140000
0.690000 0.375000 0.140000
0.805000 0.375000 0.140000
0.920000 0.375000 0.140000
0.000000 0.500000 0.140000
0.115000 0.500000 0.140000
0.230000 0.500000 0.140000
0.345000 0.500000 0.140000
0.460000 0.500000 0.140000
0.575000 0.500000 0.140000
0.690000 0.500000 0.140000
0.805000 0.500000 0.140000
0.920000 0.500000 0.140000
0.000000 0.625000 0.140000
0.115000 0.625000 0.140000
0.230000 0.625000 0.140000
0.345000 0.625000 0.140000
0.460000 0.625000 0.140000
0.575000 0.625000 0.140000
0.690000 0.625000 0.140000
0.805000 0.625000 0.140000
0.920000 0.625000 0.140000
0.000000 0.750000 0.140000
0.115000 0.750000 0.140000
0.230000 0.750000 0.140000
0.345000 0.750000 0.140000
0.460000 0.750000 0.140000
0.575000 0.750000 0.140000
0.690000 0.750000 0.140000
0.805000 0.750000 0.140000
0.920000 0.750000 0.140000
0.000000 0.875000 0.140000
0.115000 0.875000 0.140000
0.230000 0.875000 0.140000
0.345000 0.875000 0.140000
0.460000 0.875000 0.140000
0.575000 0.875000 0.140000
0.690000 0.875000 0.140000
0.805000 0.875000 0.140000
0.920000 0.875000 0.140000
0.000000 1.000000 0.140000
0.115000 1.000000 0.140000
0.230000 1.000000 0.140000
0.345000 1.000000 0.140000
0.460000 1.000000 0.140000
0.575000 1.000000 0.140000
0.690000 1.000000 0.140000
0.805000 1.000000 0.140000
0.920000 1.000000 0.140000
0.000000 0.000000 0.280000
0.115000 0.000000 0.280000
0.230000 0.000000 0.280000
0.345000 0.000000 0.280000
0.460000 0.000000 0.280000
0.575000 0.000000 0.280000
0.690000 0.000000 0.280000
0.805000 0.000000 0.280000
0.920000 0.000000 0.280000
0.000000 0.125000 0.280000
0.115000 0.125000 0.280000
0.230000 0.125000 0.280000
0.345000 0.125000 0.280000
0.460000 0.125000 0.280000
0.575000 0.125000 0.280000
0.690000 0.125000 0.280000
0.805000 0.125000 0.280000
0.920000 0.125000 0.280000
0.000000 0.250000 0.280000
0.115000 0.250000 0.280000
0.230000 0.250000 0.280000
0.345000 0.250000 0.280000
0.460000 0.250000 0.280000
0.575000 0.250000 0.280000
0.690000 0.250000 0.280000
0.805000 0.250000 0.280000
0.920000 0.250000 0.280000
0.000000 0.375000 0.280000
0.115000 0.375000 0.280000
0.230000 0.375000 0.280000
0.345000 0.375000 0.280000
0.460000 0.375000 0.280000
0.575000 0.375000 0.280000
0.690000 0.375000 0.280000
0.805000 0.375000 0.280000
0.920000 0.375000 0.280000
0.000000 0.500000 0.280000
0.115000 0.500000 0.280000
0.230000 0.500000 0.280000
0.345000 0.500000 0.280000
0.460000 0.500000 0.280000
0.575000 0.500000 0.280000
0.690000 0.500000 0.280000
0.805000 0.500000 0.280000
0.920000 0.500000 0.280000
0.000000 0.625000 0.280000
0.115000 0.625000 0.280000
0.230000 0.625000 0.280000
0.345000 0.625000 0.280000
0.460000 0.625000 0.280000
0.575000 0.625000 0.280000
0.690000 0.625000 0.280000
0.805000 0.625000 0.280000
0.920000 0.625000 0.280000
0.000000 0.750000 0.280000
0.115000 0.750000 0.280000
0.230000 0.750000 0.280000
0.345000 0.750000 0.280000
0.460000 0.750000 0.280000
0.575000 0.750000 0.280000
0.690000 0.750000 0.280000
0.805000 0.750000 0.280000
0.920000 0.750000 0.280000
0.000000 0.875000 0.280000
0.115000 0.875000 0.280000
0.230000 0.875000 0.280000
0.345000 0.875000 0.280000
0.460000 0.875000 0.280000
0.575000 0.875000 0.280000
0.690000 0.875000 0.280000
0.805000 0.875000 0.280000
0.920000 0.875000 0.280000
0.000000 1.000000 0.280000
0.115000 1.000000 0.280000
0.230000 1.000000 0.280000
0.345000 1.000000 0.280000
0.460000 1.000000 0.280000
0.575000 1.000000 0.280000
0.690000 1.000000 0.280000
0.805000 1.000000 0.280000
0.920000 1.000000 0.280000
0.000000 0.000000 0.420000
0.115000 0.000000 0.420000
0.230000 0.000000 0.420000
0.345000 0.000000 0.420000
0.460000 0.000000 0.420000
0.575000 0.000000 0.420000
0.690000 0.000000 0.420000
0.805000 0.000000 0.420000
0.920000 0.000000 0.420000
0.000000 0.125000 0.420000
0.115000 0.125000 0.420000
0.230000 0.125000 0.420000
0.345000 0.125000 0.420000
0.460000 0.125000 0.420000
0.575000 0.125000 0.420000
0.690000 0.125000 0.420000
0.805000 0.125000 0.420000
0.920000 0.125000 0.420000
0.000000 0.250000 0.420000
0.115000 0.250000 0.420000
0.230000 0.250000 0.420000
0.345000 0.250000 0.420000
0.460000 0.250000 0.420000
0.575000 0.250000 0.420000
0.690000 0.250000 0.420000
0.805000 0.250000 0.420000
0.920000 0.250000 0.420000
0.000000 0.375000 0.420000
0.115000 0.375000 0.420000
0.230000 0.375000 0.420000
0.345000 0.375000 0.420000
0.460000 0.375000 0.420000
0.575000 0.375000 0.420000
0.690000 0.375000 0.420000
0.805000 0.375000 0.420000
0.920000 0.375000 0.420000
0.000000 0.500000 0.420000
0.115000 0.500000 0.420000
0.230000 0.500000 0.420000
0.345000 0.500000 0.420000
0.460000 0.500000 0.420000
0.575000 0.500000 0.420000
0.690000 0.500000 0.420000
0.805000 0.500000 0.420000
0.920000 0.500000 0.420000
0.000000 0.625000 0.420000
0.115000 0.625000 0.420000
0.230000 0.625000 0.420000
0.345000 0.625000 0.420000
0.460000 0.625000 0.420000
0.575000 0.625000 0.420000
0.690000 0.625000 0.420000
0.805000 0.625000 0.420000
0.920000 0.625000 0.420000
0.000000 0.750000 0.420000
0.115000 0.750000 0.420000
0.230000 0.750000 0.420000
0.345000 0.750000 0.420000
0.460000 0.750000 0.420000
0.575000 0.750000 0.420000
0.690000 0.750000 0.420000
0.805000 0.750000 0.420000
0.920000 0.750000 0.420000
0.000000 0.875000 0.420000
0.115000 0.875000 0.420000
0.230000 0.875000 0.420000
0.345000 0.875000 0.420000
0.460000 0.875000 0.420000
0.575000 0.875000 0.420000
0.690000 0.875000 0.420000
0.805000 0.875000 0.420000
0.920000 0.875000 0.420000
0.000000 1.000000 0.420000
0.115000 1.000000 0.420000
0.230000 1.000000 0.420000
0.345000 1.000000 0.420000
0.460000 1.000000 0.420000
0.575000 1.000000 0.420000
0.690000 1.000000 0.420000
0.805000 1.000000 0.420000
0.920000 1.000000 0.420000
0.000000 0.000000 0.560000
0.115000 0.000000 0.560000
0.230000 0.000000 0.560000
0.345000 0.000000 0.560000
0.460000 0.000000 0.560000
0.575000 0.000000 0.560000
0.690000 0.000000 0.560000
0.805000 0.000000 0.560000
0.920000 0.000000 0.560000
0.000000 0.125000 0.560000
0.115000 0.125000 0.560000
0.230000 0.125000 0.560000
0.345000 0.125000 0.560000
0.460000 0.125000 0.560000
0.575000 0.125000 0.560000
0.690000 0.125000 0.560000
0.805000 0.125000 0.560000
0.920000 0.125000 0.560000
0.000000 0.250000 0.560000
0.115000 0.250000 0.560000
0.230000 0.250000 0.560000
0.345000 0.250000 0.560000
0.460000 0.250000 0.560000
0.575000 0.250000 0.560000
0.690000 0.250000 0.560000
0.805000 0.250000 0.560000
0.920000 0.250000 0.560000
0.000000 0.375000 0.560000
0.115000 0.375000 0.560000
0.230000 0.375000 0.560000
0.345000 0.375000 0.560000
0.460000 0.375000 0.560000
0.575000 0.375000 0.560000
0.690000 0.375000 0.560000
0.805000 0.375000 0.560000
0.920000 0.375000 0.560000
0.000000 0.500000 0.560000
0.115000 0.500000 0.560000
0.230000 0.500000 0.560000
0.345000 0.500000 0.560000
0.460000 0.500000 0.560000
0.575000 0.500000 0.560000
0.690000 0.500000 0.560000
0.805000 0.500000 0.560000
0.920000 0.500000 0.560000
0.000000 0.625000 0.560000
0.115000 0.625000 0.560000
0.230000 0.625000 0.560000
0.345000 0.625000 0.560000
0.460000 0.625000 0.560000
0.575000 0.625000 0.560000
0.690000 0.625000 0.560000
0.805000 0.625000 0.560000
0.920000 0.625000 0.560000
0.000000 0.750000 0.560000
0.115000 0.750000 0.560000
0.230000 0.750000 0.560000
0.345000 0.750000 0.560000
0.460000 0.750000 0.560000
0.575000 0.750000 0.560000
0.690000 0.750000 0.560000
0.805000 0.750000 0.560000
0.920000 0.750000 0.560000
0.000000 0.875000 0.560000
0.115000 0.875000 0.560000
0.230000 0.875000 0.560000
0.345000 0.875000 0.560000
0.460000 0.875000 0.560000
0.575000 0.875000 0.560000
0.690000 0.875000 0.560000
0.805000 0.875000 0.560000
0.920000 0.875000 0.560000
0.000000 1.000000 0.560000
0.115000 1.000000 0.560000
0.230000 1.000000 0.560000
0.345000 1.000000 0.560000
0.460000 1.000000 0.560000
0.575000 1.000000 0.560000
0.690000 1.000000 0.560000
0.805000 1.000000 0.560000
0.920000 1.000000 0.560000
0.000000 0.000000 0.700000
0.115000 0.000000 0.700000
0.230000 0.000000 0.700000
0.345000 0.000000 0.700000
0.460000 0.000000 0.700000
0.575000 0.000000 0.700000
0.690000 0.000000 0.700000
0.805000 0.000000 0.700000
0.920000 0.000000 0.700000
0.000000 0.125000 0.700000
0.115000 0.125000 0.700000
0.230000 0.125000 0.700000
0.345000 0.125000 0.700000
0.460000 0.125000 0.700000
0.575000 0.125000 0.700000
0.690000 0.125000 0.700000
0.805000 0.125000 0.700000
0.920000 0.125000 0.700000
0.000000 0.250000 0.700000
0.115000 0.250000 0.700000
0.230000 0.250000 0.700000
0.345000 0.250000 0.700000
0.460000 0.250000 0.700000
0.575000 0.250000 0.700000
0.690000 0.250000 0.700000
0.805000 0.250000 0.700000
0.920000 0.250000 0.700000
0.000000 0.375000 0.700000
0.115000 0.375000 0.700000
0.230000 0.375000 0.700000
0.345000 0.375000 0.700000
0.460000 0.375000 0.700000
0.575000 0.375000 0.700000
0.690000 0.375000 0.700000
0.805000 0.375000 0.700000
0.920000 0.375000 0.700000
0.000000 0.500000 0.700000
0.115000 0.500000 0.700000
0.230000 0.500000 0.700000
0.345000 0.500000 0.700000
0.460000 0.500000 0.700000
0.575000 0.500000 0.700000
0.690000 0.500000 0.700000
0.805000 0.500000 0.700000
0.920000 0.500000 0.700000
0.000000 0.625000 0.700000
0.115000 0.625000 0.700000
0.230000 0.625000 0.700000
0.345000 0.625000 0.700000
0.460000 0.625000 0.700000
0.575000 0.625000 0.700000
0.690000 0.625000 0.700000
0.805000 0.625000 0.700000
0.920000 0.625000 0.700000
0.000000 0.750000 0.700000
0.115000 0.750000 0.700000
0.230000 0.750000 0.700000
0.345000 0.750000 0.700000
0.460000 0.750000 0.700000
0.575000 0.750000 0.700000
0.690000 0.750000 0.700000
0.805000 0.750000 0.700000
0.920000 0.750000 0.700000
0.000000 0.875000 0.700000
0.115000 0.875000 0.700000
0.230000 0.875000 0.700000
0.345000 0.875000 0.700000
0.460000 0.875000 0.700000
0.575000 0.875000 0.700000
0.690000 0.875000 0.700000
0.805000 0.875000 0.700000
0.920000 0.875000 0.700000
0.000000 1.000000 0.700000
0.115000 1.000000 0.700000
0.230000 1.000000 0.700000
0.345000 1.000000 0.700000
0.460000 1.000000 0.700000
0.575000 1.000000 0.700000
0.690000 1.000000 0.700000
0.805000 1.000000 0.700000
0.920000 1.000000 0.700000
0.000000 0.000000 0.840000
0.115000 0.000000 0.840000
0.230000 0.000000 0.840000
0.345000 0.000000 0.840000
0.460000 0.000000 0.840000
0.575000 0.000000 0.840000
0.690000 0.000000 0.840000
0.805000 0.000000 0.840000
0.920000 0.000000 0.840000
0.000000 0.125000 0.840000
0.115000 0.125000 0.840000
0.230000 0.125000 0.840000
0.345000 0.125000 0.840000
0.460000 0.125000 0.840000
0.575000 0.125000 0.840000
0.690000 0.125000 0.840000
0.805000 0.125000 0.840000
0.920000 0.125000 0.840000
0.000000 0.250000 0.840000
0.115000 0.250000 0.840000
0.230000 0.250000 0.840000
0.345000 0.250000 0.840000
0.460000 0.250000 0.840000
0.575000 0.250000 0.840000
0.690000 0.250000 0.840000
0.805000 0.250000 0.840000
0.920000 0.250000 0.840000
0.000000 0.375000 0.840000
0.115000 0.375000 0.840000
0.230000 0.375000 0.840000
0.345000 0.375000 0.840000
0.460000 0.375000 0.840000
0.575000 0.375000 0.840000
0.690000 0.375000 0.840000
0.805000 0.375000 0.840000
0.920000 0.375000 0.840000
0.000000 0.500000 0.840000
0.115000 0.500000 0.840000
0.230000 0.500000 0.840000
0.345000 0.500000 0.840000
0.460000 0.500000 0.840000
0.575000 0.500000 0.840000
0.690000 0.500000 0.840000
0.805000 0.500000 0.840000
0.920000 0.500000 0.840000
0.000000 0.625000 0.840000
0.115000 0.625000 0.840000
0.230000 0.625000 0.840000
0.345000 0.625000 0.840000
0.460000 0.625000 0.840000
0.575000 0.625000 0.840000
0.690000 0.625000 0.840000
0.805000 0.625000 0.840000
0.920000 0.625000 0.840000
0.000000 0.750000 0.840000
0.115000 0.750000 0.840000
0.230000 0.750000 0.840000
0.345000 0.750000 0.840000
0.460000 0.750000 0.840000
0.575000 0.750000 0.840000
0.690000 0.750000 0.840000
0.805000 0.750000 0.840000
0.920000 0.750000 0.840000
0.000000 0.875000 0.840000
0.115000 0.875000 0.840000
0.230000 0.875000 0.840000
0.345000 0.875000 0.840000
0.460000 0.875000 0.840000
0.575000 0.875000 0.840000
0.690000 0.875000 0.840000
0.805000 0.875000 0.840000
0.920000 0.875000 0.840000
0.000000 1.000000 0.840000
0.115000 1.000000 0.840000
0.230000 1.000000 0.840000
0.345000 1.000000 0.840000
0.460000 1.000000 0.840000
0.575000 1.000000 0.840000
0.690000 1.000000 0.840000
0.805000 1.000000 0.840000
0.920000 1.000000 0.840000
0.000000 0.000000 0.980000
0.115000 0.000000 0.980000
0.230000 0.000000 0.980000
0.345000 0.000000 0.980000
0.460000 0.000000 0.980000
0.575000 0.000000 0.980000
0.690000 0.000000 0.980000
0.805000 0.000000 0.980000
0.920000 0.000000 0.980000
0.000000 0.125000 0.980000
0.115000 0.125000 0.980000
0.230000 0.125000 0.980000
0.345000 0.125000 0.980000
0.460000 0.125000 0.980000
0.575000 0.125000 0.980000
0.690000 0.125000 0.980000
0.805000 0.125000 0.980000
0.920000 0.125000 0.980000
0.000000 0.250000 0.980000
0.115000 0.250000 0.980000
0.230000 0.250000 0.980000
0.345000 0.250000 0.980000
0.460000 0.250000 0.980000
0.575000 0.250000 0.980000
0.690000 0.250000 0.980000
0.805000 0.250000 0.980000
0.920000 0.250000 0.980000
0.000000 0.375000 0.980000
0.115000 0.375000 0.980000
0.230000 0.375000 0.980000
0.345000 0.375000 0.980000
0.460000 0.375000 0.980000
0.575000 0.375000 0.980000
0.690000 0.375000 0.980000
0.805000 0.375000 0.980000
0.920000 0.375000 0.980000
0.000000 0.500000 0.980000
0.115000 0.500000 0.980000
0.230000 0.500000 0.980000
0.345000 0.500000 0.980000
0.460000 0.500000 0.980000
0.575000 0.500000 0.980000
0.690000 0.500000 0.980000
0.805000 0.500000 0.980000
0.920000 0.500000 0.980000
0.000000 0.625000 0.980000
0.115000 0.625000 0.980000
0.230000 0.625000 0.980000
0.345000 0.625000 0.980000
0.460000 0.625000 0.980000
0.575000 0.625000 0.980000
0.690000 0.625000 0.980000
0.805000 0.625000 0.980000
0.920000 0.625000 0.980000
0.000000 0.750000 0.980000
0.115000 0.750000 0.980000
0.230000 0.750000 0.980000
0.345000 0.750000 0.980000
0.460000 0.750000 0.980000
0.575000 0.750000 0.980000
0.690000 0.750000 0.980000
0.805000 0.750000 0.980000
0.920000 0.750000 0.980000
0.000000 0.875000 0.980000
0.115000 0.875000 0.980000
0.230000 0.875000 0.980000
0.345000 0.875000 0.980000
0.460000 0.875000 0.980000
0.575000 0.875000 0.980000
0.690000 0.875000 0.980000
0.805000 0.875000 0.980000
0.920000 0.875000 0.980000
0.000000 1.000000 0.980000
0.115000 1.000000 0.980000
0.230000 1.000000 0.980000
0.345000 1.000000 0.980000
0.460000 1.000000 0.980000
0.575000 1.000000 0.980000
0.690000 1.000000 0.980000
0.805000 1.000000 0.980000
0.920000 1.000000 0.980000
0.000000 0.000000 1.000000
0.115000 0.000000 1.000000
0.230000 0.000000 1.000000
0.345000 0.000000 1.000000
0.460000 0.000000 1.000000
0.575000 0.000000 1.000000
0.690000 0.000000 1.000000
0.805000 0.000000 1.000000
0.920000 0.000000 1.000000
0.000000 0.125000 1.000000
0.115000 0.125000 1.000000
0.230000 0.125000 1.000000
0.345000 0.125000 1.000000
0.460000 0.125000 1.000000
0.575000 0.125000 1.000000
0.690000 0.125000 1.000000
0.805000 0.125000 1.000000
0.920000 0.125000 1.000000
0.000000 0.250000 1.000000
0.115000 0.250000 1.000000
0.230000 0.250000 1.000000
0.345000 0.250000 1.000000
0.460000 0.250000 1.000000
0.575000 0.250000 1.000000
0.690000 0.250000 1.000000
0.805000 0.250000 1.000000
0.920000 0.250000 1.000000
0.000000 0.375000 1.000000
0.115000 0.375000 1.000000
0.230000 0.375000 1.000000
0.345000 0.375000 1.000000
0.460000 0.375000 1.000000
0.575000 0.375000 1.000000
0.690000 0.375000 1.000000
0.805000 0.375000 1.000000
0.920000 0.375000 1.000000
0.000000 0.500000 1.000000
0.115000 0.500000 1.000000
0.230000 0.500000 1.000000
0.345000 0.500000 1.000000
0.460000 0.500000 1.000000
0.575000 0.500000 1.000000
0.690000 0.500000 1.000000
0.805000 0.500000 1.000000
0.920000 0.500000 1.000000
0.000000 0.625000 1.000000
0.115000 0.625000 1.000000
0.230000 0.625000 1.000000
0.345000 0.625000 1.000000
0.460000 0.625000 1.000000
0.575000 0.625000 1.000000
0.690000 0.625000 1.000000
0.805000 0.625000 1.000000
0.920000 0.625000 1.000000
0.000000 0.750000 1.000000
0.115000 0.750000 1.000000
0.230000 0.750000 1.000000
0.345000 0.750000 1.000000
0.460000 0.750000 1.000000
0.575000 0.750000 1.000000
0.690000 0.750000 1.000000
0.805000 0.750000 1.000000
0.920000 0.750000 1.000000
0.000000 0.875000 1.000000
0.115000 0.875000 1.000000
0.230000 0.875000 1.000000
0.345000 0.875000 1.000000
0.460000 0.875000 1.000000
0.575000 0.875000 1.000000
0.690000 0.875000 1.000000
0.805000 0.875000 1.000000
0.920000 0.875000 1.000000
0.000000 1.000000 1.000000
0.115000 1.000000 1.000000
0.230000 1.000000 1.000000
0.345000 1.000000 1.000000
0.460000 1.000000 1.000000
0.575000 1.000000 1.000000
0.690000 1.000000 1.000000
0.805000 1.000000 1.000000
0.920000 1.000000 1.000000
