src/cutvoke/assets/luts/retro.cube
# Created by CutVoke generate_luts.py
TITLE retro
LUT_3D_SIZE 33
DOMAIN_MIN 0.0 0.0 0.0
DOMAIN_MAX 1.0 1.0 1.0
0.030000 0.030000 0.030000
0.059295 0.031360 0.031224
0.088590 0.032719 0.032447
0.117885 0.034079 0.033671
0.147181 0.035438 0.034894
0.176476 0.036798 0.036118
0.205771 0.038157 0.037341
0.235066 0.039517 0.038565
0.264361 0.040876 0.039789
0.293656 0.042236 0.041012
0.322952 0.043595 0.042236
0.352247 0.044955 0.043459
0.381542 0.046314 0.044683
0.410837 0.047674 0.045906
0.440132 0.049033 0.047130
0.469427 0.050393 0.048353
0.498722 0.051752 0.049577
0.528018 0.053112 0.050801
0.557313 0.054471 0.052024
0.586608 0.055831 0.053248
0.615903 0.057190 0.054471
0.645198 0.058550 0.055695
0.674493 0.059909 0.056918
0.703788 0.061269 0.058142
0.733084 0.062628 0.059366
0.762379 0.063988 0.060589
0.791674 0.065347 0.061813
0.820969 0.066707 0.063036
0.850264 0.068066 0.064260
0.879559 0.069426 0.065483
0.908855 0.070785 0.066707
0.938150 0.072145 0.067930
0.967445 0.073505 0.069154
0.032883 0.058435 0.032402
0.062178 0.059794 0.033626
0.091473 0.061154 0.034849
0.120768 0.062513 0.036073
0.150063 0.063873 0.037296
0.179358 0.065232 0.038520
0.208653 0.066592 0.039743
0.237949 0.067951 0.040967
0.267244 0.069311 0.042191
0.296539 0.070670 0.043414
0.325834 0.072030 0.044638
0.355129 0.073389 0.045861
0.384424 0.074749 0.047085
0.413720 0.076108 0.048308
0.443015 0.077468 0.049532
0.472310 0.078827 0.050756
0.501605 0.080187 0.051979
0.530900 0.081546 0.053203
0.560195 0.082906 0.054426
0.589490 0.084265 0.055650
0.618786 0.085625 0.056873
0.648081 0.086984 0.058097
0.677376 0.088344 0.059321
0.706671 0.089703 0.060544
0.735966 0.091063 0.061768
0.765261 0.092423 0.062991
0.794556 0.093782 0.064215
0.823852 0.095142 0.065438
0.853147 0.096501 0.066662
0.882442 0.097861 0.067885
0.911737 0.099220 0.069109
0.941032 0.100580 0.070333
0.970327 0.101939 0.071556
0.035765 0.086869 0.034804
0.065060 0.088229 0.036028
0.094355 0.089588 0.037251
0.123651 0.090948 0.038475
0.152946 0.092307 0.039698
0.182241 0.093667 0.040922
0.211536 0.095026 0.042146
0.240831 0.096386 0.043369
0.270126 0.097745 0.044593
0.299421 0.099105 0.045816
0.328717 0.100464 0.047040
0.358012 0.101824 0.048263
0.387307 0.103183 0.049487
0.416602 0.104543 0.050711
0.445897 0.105902 0.051934
0.475192 0.107262 0.053158
0.504488 0.108622 0.054381
0.533783 0.109981 0.055605
0.563078 0.111341 0.056828
0.592373 0.112700 0.058052
0.621668 0.114060 0.059276
0.650963 0.115419 0.060499
0.680258 0.116779 0.061723
0.709554 0.118138 0.062946
0.738849 0.119498 0.064170
0.768144 0.120857 0.065393
0.797439 0.122217 0.066617
0.826734 0.123576 0.067840
0.856029 0.124936 0.069064
0.885324 0.126295 0.070288
0.914620 0.127655 0.071511
0.943915 0.129014 0.072735
0.973210 0.130374 0.073958
0.038648 0.115304 0.037206
0.067943 0.116663 0.038430
0.097238 0.118023 0.039653
0.126533 0.119382 0.040877
0.155828 0.120742 0.042101
0.185123 0.122101 0.043324
0.214419 0.123461 0.044548
0.243714 0.124821 0.045771
0.273009 0.126180 0.046995
0.302304 0.127540 0.048218
0.331599 0.128899 0.049442
0.360894 0.130259 0.050666
0.390189 0.131618 0.051889
0.419485 0.132978 0.053113
0.448780 0.134337 0.054336
0.478075 0.135697 0.055560
0.507370 0.137056 0.056783
0.536665 0.138416 0.058007
0.565960 0.139775 0.059230
0.595255 0.141135 0.060454
0.624551 0.142494 0.061678
0.653846 0.143854 0.062901
0.683141 0.145213 0.064125
0.712436 0.146573 0.065348
0.741731 0.147932 0.066572
0.771026 0.149292 0.067795
0.800322 0.150651 0.069019
0.829617 0.152011 0.070243
0.858912 0.153370 0.071466
0.888207 0.154730 0.072690
0.917502 0.156089 0.073913
0.946797 0.157449 0.075137
0.976092 0.158808 0.076360
0.041530 0.143739 0.039608
0.070825 0.145098 0.040832
0.100120 0.146458 0.042056
0.129416 0.147817 0.043279
0.158711 0.149177 0.044503
0.188006 0.150536 0.045726
0.217301 0.151896 0.046950
0.246596 0.153255 0.048173
0.275891 0.154615 0.049397
0.305187 0.155974 0.050621
0.334482 0.157334 0.051844
0.363777 0.158693 0.053068
0.393072 0.160053 0.054291
0.422367 0.161412 0.055515
0.451662 0.162772 0.056738
0.480957 0.164131 0.057962
0.510253 0.165491 0.059185
0.539548 0.166850 0.060409
0.568843 0.168210 0.061633
0.598138 0.169569 0.062856
0.627433 0.170929 0.064080
0.656728 0.172288 0.065303
0.686023 0.173648 0.066527
0.715319 0.175007 0.067750
0.744614 0.176367 0.068974
0.773909 0.177726 0.070198
0.803204 0.179086 0.071421
0.832499 0.180445 0.072645
0.861794 0.181805 0.073868
0.891090 0.183165 0.075092
0.920385 0.184524 0.076315
0.949680 0.185884 0.077539
0.978975 0.187243 0.078763
0.044413 0.172173 0.042011
0.073708 0.173533 0.043234
0.103003 0.174892 0.044458
0.132298 0.176252 0.045681
0.161593 0.177611 0.046905
0.190888 0.178971 0.048128
0.220184 0.180330 0.049352
0.249479 0.181690 0.050576
0.278774 0.183049 0.051799
0.308069 0.184409 0.053023
0.337364 0.185768 0.054246
0.366659 0.187128 0.055470
0.395955 0.188487 0.056693
0.425250 0.189847 0.057917
0.454545 0.191206 0.059140
0.483840 0.192566 0.060364
0.513135 0.193925 0.061588
0.542430 0.195285 0.062811
0.571725 0.196644 0.064035
0.601021 0.198004 0.065258
0.630316 0.199364 0.066482
0.659611 0.200723 0.067705
0.688906 0.202083 0.068929
0.718201 0.203442 0.070153
0.747496 0.204802 0.071376
0.776791 0.206161 0.072600
0.806087 0.207521 0.073823
0.835382 0.208880 0.075047
0.864677 0.210240 0.076270
0.893972 0.211599 0.077494
0.923267 0.212959 0.078717
0.952562 0.214318 0.079941
0.981858 0.215678 0.081165
0.047295 0.200608 0.044413
0.076590 0.201967 0.045636
0.105886 0.203327 0.046860
0.135181 0.204686 0.048083
0.164476 0.206046 0.049307
0.193771 0.207405 0.050531
0.223066 0.208765 0.051754
0.252361 0.210124 0.052978
0.281656 0.211484 0.054201
0.310952 0.212843 0.055425
0.340247 0.214203 0.056648
0.369542 0.215563 0.057872
0.398837 0.216922 0.059095
0.428132 0.218282 0.060319
0.457427 0.219641 0.061543
0.486722 0.221001 0.062766
0.516018 0.222360 0.063990
0.545313 0.223720 0.065213
0.574608 0.225079 0.066437
0.603903 0.226439 0.067660
0.633198 0.227798 0.068884
0.662493 0.229158 0.070108
0.691789 0.230517 0.071331
0.721084 0.231877 0.072555
0.750379 0.233236 0.073778
0.779674 0.234596 0.075002
0.808969 0.235955 0.076225
0.838264 0.237315 0.077449
0.867559 0.238674 0.078672
0.896855 0.240034 0.079896
0.926150 0.241393 0.081120
0.955445 0.242753 0.082343
0.984740 0.244112 0.083567
0.050178 0.229042 0.046815
0.079473 0.230402 0.048038
0.108768 0.231762 0.049262
0.138063 0.233121 0.050485
0.167358 0.234481 0.051709
0.196654 0.235840 0.052933
0.225949 0.237200 0.054156
0.255244 0.238559 0.055380
0.284539 0.239919 0.056603
0.313834 0.241278 0.057827
0.343129 0.242638 0.059050
0.372424 0.243997 0.060274
0.401720 0.245357 0.061498
0.431015 0.246716 0.062721
0.460310 0.248076 0.063945
0.489605 0.249435 0.065168
0.518900 0.250795 0.066392
0.548195 0.252154 0.067615
0.577490 0.253514 0.068839
0.606786 0.254873 0.070063
0.636081 0.256233 0.071286
0.665376 0.257592 0.072510
0.694671 0.258952 0.073733
0.723966 0.260311 0.074957
0.753261 0.261671 0.076180
0.782557 0.263030 0.077404
0.811852 0.264390 0.078627
0.841147 0.265749 0.079851
0.870442 0.267109 0.081075
0.899737 0.268468 0.082298
0.929032 0.269828 0.083522
0.958327 0.271187 0.084745
0.987623 0.272547 0.085969
0.053060 0.257477 0.049217
0.082355 0.258837 0.050440
0.111651 0.260196 0.051664
0.140946 0.261556 0.052888
0.170241 0.262915 0.054111
0.199536 0.264275 0.055335
0.228831 0.265634 0.056558
0.258126 0.266994 0.057782
0.287422 0.268353 0.059005
0.316717 0.269713 0.060229
0.346012 0.271072 0.061453
0.375307 0.272432 0.062676
0.404602 0.273791 0.063900
0.433897 0.275151 0.065123
0.463192 0.276510 0.066347
0.492488 0.277870 0.067570
0.521783 0.279229 0.068794
0.551078 0.280589 0.070018
0.580373 0.281948 0.071241
0.609668 0.283308 0.072465
0.638963 0.284667 0.073688
0.668258 0.286027 0.074912
0.697554 0.287386 0.076135
0.726849 0.288746 0.077359
0.756144 0.290106 0.078582
0.785439 0.291465 0.079806
0.814734 0.292825 0.081030
0.844029 0.294184 0.082253
0.873325 0.295544 0.083477
0.902620 0.296903 0.084700
0.931915 0.298263 0.085924
0.961210 0.299622 0.087147
0.990505 0.300982 0.088371
0.055943 0.285912 0.051619
0.085238 0.287271 0.052843
0.114533 0.288631 0.054066
0.143828 0.289990 0.055290
0.173123 0.291350 0.056513
0.202419 0.292709 0.057737
0.231714 0.294069 0.058960
0.261009 0.295428 0.060184
0.290304 0.296788 0.061408
0.319599 0.298147 0.062631
0.348894 0.299507 0.063855
0.378190 0.300866 0.065078
0.407485 0.302226 0.066302
0.436780 0.303585 0.067525
0.466075 0.304945 0.068749
0.495370 0.306304 0.069972
0.524665 0.307664 0.071196
0.553960 0.309024 0.072420
0.583256 0.310383 0.073643
0.612551 0.311743 0.074867
0.641846 0.313102 0.076090
0.671141 0.314462 0.077314
0.700436 0.315821 0.078537
0.729731 0.317181 0.079761
0.759026 0.318540 0.080985
0.788322 0.319900 0.082208
0.817617 0.321259 0.083432
0.846912 0.322619 0.084655
0.876207 0.323978 0.085879
0.905502 0.325338 0.087102
0.934797 0.326697 0.088326
0.964093 0.328057 0.089550
0.993388 0.329416 0.090773
0.058825 0.314346 0.054021
0.088121 0.315706 0.055245
0.117416 0.317065 0.056468
0.146711 0.318425 0.057692
0.176006 0.319784 0.058915
0.205301 0.321144 0.060139
0.234596 0.322503 0.061363
0.263891 0.323863 0.062586
0.293187 0.325223 0.063810
0.322482 0.326582 0.065033
0.351777 0.327942 0.066257
0.381072 0.329301 0.067480
0.410367 0.330661 0.068704
0.439662 0.332020 0.069927
0.468957 0.333380 0.071151
0.498253 0.334739 0.072375
0.527548 0.336099 0.073598
0.556843 0.337458 0.074822
0.586138 0.338818 0.076045
0.615433 0.340177 0.077269
0.644728 0.341537 0.078492
0.674024 0.342896 0.079716
0.703319 0.344256 0.080940
0.732614 0.345615 0.082163
0.761909 0.346975 0.083387
0.791204 0.348334 0.084610
0.820499 0.349694 0.085834
0.849794 0.351053 0.087057
0.879090 0.352413 0.088281
0.908385 0.353772 0.089504
0.937680 0.355132 0.090728
0.966975 0.356491 0.091952
0.996270 0.357851 0.093175
0.061708 0.342781 0.056423
0.091003 0.344141 0.057647
0.120298 0.345500 0.058870
0.149593 0.346860 0.060094
0.178889 0.348219 0.061318
0.208184 0.349579 0.062541
0.237479 0.350938 0.063765
0.266774 0.352298 0.064988
0.296069 0.353657 0.066212
0.325364 0.355017 0.067435
0.354659 0.356376 0.068659
0.383955 0.357736 0.069882
0.413250 0.359095 0.071106
0.442545 0.360455 0.072330
0.471840 0.361814 0.073553
0.501135 0.363174 0.074777
0.530430 0.364533 0.076000
0.559725 0.365893 0.077224
0.589021 0.367252 0.078447
0.618316 0.368612 0.079671
0.647611 0.369971 0.080895
0.676906 0.371331 0.082118
0.706201 0.372690 0.083342
0.735496 0.374050 0.084565
0.764792 0.375409 0.085789
0.794087 0.376769 0.087012
0.823382 0.378128 0.088236
0.852677 0.379488 0.089459
0.881972 0.380847 0.090683
0.911267 0.382207 0.091907
0.940562 0.383567 0.093130
0.969858 0.384926 0.094354
0.999153 0.386286 0.095577
0.064590 0.371216 0.058825
0.093886 0.372575 0.060049
0.123181 0.373935 0.061272
0.152476 0.375294 0.062496
0.181771 0.376654 0.063720
0.211066 0.378013 0.064943
0.240361 0.379373 0.066167
0.269657 0.380732 0.067390
0.298952 0.382092 0.068614
0.328247 0.383451 0.069837
0.357542 0.384811 0.071061
0.386837 0.386170 0.072285
0.416132 0.387530 0.073508
0.445427 0.388889 0.074732
0.474723 0.390249 0.075955
0.504018 0.391608 0.077179
0.533313 0.392968 0.078402
0.562608 0.394327 0.079626
0.591903 0.395687 0.080850
0.621198 0.397046 0.082073
0.650493 0.398406 0.083297
0.679789 0.399766 0.084520
0.709084 0.401125 0.085744
0.738379 0.402485 0.086967
0.767674 0.403844 0.088191
0.796969 0.405204 0.089414
0.826264 0.406563 0.090638
0.855560 0.407923 0.091862
0.884855 0.409282 0.093085
0.914150 0.410642 0.094309
0.943445 0.412001 0.095532
0.972740 0.413361 0.096756
1.000000 0.414720 0.097979
0.067473 0.399650 0.061227
0.096768 0.401010 0.062451
0.126063 0.402369 0.063675
0.155358 0.403729 0.064898
0.184654 0.405088 0.066122
0.213949 0.406448 0.067345
0.243244 0.407807 0.068569
0.272539 0.409167 0.069792
0.301834 0.410526 0.071016
0.331129 0.411886 0.072240
0.360424 0.413245 0.073463
0.389720 0.414605 0.074687
0.419015 0.415965 0.075910
0.448310 0.417324 0.077134
0.477605 0.418684 0.078357
0.506900 0.420043 0.079581
0.536195 0.421403 0.080805
0.565491 0.422762 0.082028
0.594786 0.424122 0.083252
0.624081 0.425481 0.084475
0.653376 0.426841 0.085699
0.682671 0.428200 0.086922
0.711966 0.429560 0.088146
0.741261 0.430919 0.089369
0.770557 0.432279 0.090593
0.799852 0.433638 0.091817
0.829147 0.434998 0.093040
0.858442 0.436357 0.094264
0.887737 0.437717 0.095487
0.917032 0.439076 0.096711
0.946328 0.440436 0.097934
0.975623 0.441795 0.099158
1.000000 0.443155 0.100382
0.070356 0.428085 0.063630
0.099651 0.429444 0.064853
0.128946 0.430804 0.066077
0.158241 0.432164 0.067300
0.187536 0.433523 0.068524
0.216831 0.434883 0.069747
0.246126 0.436242 0.070971
0.275422 0.437602 0.072195
0.304717 0.438961 0.073418
0.334012 0.440321 0.074642
0.363307 0.441680 0.075865
0.392602 0.443040 0.077089
0.421897 0.444399 0.078312
0.451192 0.445759 0.079536
0.480488 0.447118 0.080759
0.509783 0.448478 0.081983
0.539078 0.449837 0.083207
0.568373 0.451197 0.084430
0.597668 0.452556 0.085654
0.626963 0.453916 0.086877
0.656259 0.455275 0.088101
0.685554 0.456635 0.089324
0.714849 0.457994 0.090548
0.744144 0.459354 0.091772
0.773439 0.460713 0.092995
0.802734 0.462073 0.094219
0.832029 0.463432 0.095442
0.861325 0.464792 0.096666
0.890620 0.466151 0.097889
0.919915 0.467511 0.099113
0.949210 0.468870 0.100337
0.978505 0.470230 0.101560
1.000000 0.471589 0.102784
0.073238 0.456520 0.066032
0.102533 0.457879 0.067255
0.131828 0.459239 0.068479
0.161124 0.460598 0.069702
0.190419 0.461958 0.070926
0.219714 0.463317 0.072150
0.249009 0.464677 0.073373
0.278304 0.466036 0.074597
0.307599 0.467396 0.075820
0.336894 0.468755 0.077044
0.366190 0.470115 0.078267
0.395485 0.471474 0.079491
0.424780 0.472834 0.080714
0.454075 0.474193 0.081938
0.483370 0.475553 0.083162
0.512665 0.476912 0.084385
0.541960 0.478272 0.085609
0.571256 0.479631 0.086832
0.600551 0.480991 0.088056
0.629846 0.482350 0.089279
0.659141 0.483710 0.090503
0.688436 0.485069 0.091727
0.717731 0.486429 0.092950
0.747027 0.487788 0.094174
0.776322 0.489148 0.095397
0.805617 0.490507 0.096621
0.834912 0.491867 0.097844
0.864207 0.493227 0.099068
0.893502 0.494586 0.100292
0.922797 0.495946 0.101515
0.952093 0.497305 0.102739
0.981388 0.498665 0.103962
1.000000 0.500024 0.105186
0.076121 0.484954 0.068434
0.105416 0.486314 0.069657
0.134711 0.487673 0.070881
0.164006 0.489033 0.072105
0.193301 0.490392 0.073328
0.222596 0.491752 0.074552
0.251892 0.493111 0.075775
0.281187 0.494471 0.076999
0.310482 0.495830 0.078222
0.339777 0.497190 0.079446
0.369072 0.498549 0.080669
0.398367 0.499909 0.081893
0.427662 0.501268 0.083117
0.456958 0.502628 0.084340
0.486253 0.503987 0.085564
0.515548 0.505347 0.086787
0.544843 0.506706 0.088011
0.574138 0.508066 0.089234
0.603433 0.509426 0.090458
0.632728 0.510785 0.091682
0.662024 0.512145 0.092905
0.691319 0.513504 0.094129
0.720614 0.514864 0.095352
0.749909 0.516223 0.096576
0.779204 0.517583 0.097799
0.808499 0.518942 0.099023
0.837795 0.520302 0.100246
0.867090 0.521661 0.101470
0.896385 0.523021 0.102694
0.925680 0.524380 0.103917
0.954975 0.525740 0.105141
0.984270 0.527099 0.106364
1.000000 0.528459 0.107588
0.079003 0.513389 0.070836
0.108298 0.514748 0.072060
0.137593 0.516108 0.073283
0.166889 0.517467 0.074507
0.196184 0.518827 0.075730
0.225479 0.520186 0.076954
0.254774 0.521546 0.078177
0.284069 0.522906 0.079401
0.313364 0.524265 0.080624
0.342659 0.525625 0.081848
0.371955 0.526984 0.083072
0.401250 0.528344 0.084295
0.430545 0.529703 0.085519
0.459840 0.531063 0.086742
0.489135 0.532422 0.087966
0.518430 0.533782 0.089189
0.547726 0.535141 0.090413
0.577021 0.536501 0.091637
0.606316 0.537860 0.092860
0.635611 0.539220 0.094084
0.664906 0.540579 0.095307
0.694201 0.541939 0.096531
0.723496 0.543298 0.097754
0.752792 0.544658 0.098978
0.782087 0.546017 0.100201
0.811382 0.547377 0.101425
0.840677 0.548736 0.102649
0.869972 0.550096 0.103872
0.899267 0.551455 0.105096
0.928563 0.552815 0.106319
0.957858 0.554174 0.107543
0.987153 0.555534 0.108766
1.000000 0.556893 0.109990
0.081886 0.541824 0.073238
0.111181 0.543183 0.074462
0.140476 0.544543 0.075685
0.169771 0.545902 0.076909
0.199066 0.547262 0.078132
0.228361 0.548621 0.079356
0.257657 0.549981 0.080579
0.286952 0.551340 0.081803
0.316247 0.552700 0.083027
0.345542 0.554059 0.084250
0.374837 0.555419 0.085474
0.404132 0.556778 0.086697
0.433427 0.558138 0.087921
0.462723 0.559497 0.089144
0.492018 0.560857 0.090368
0.521313 0.562216 0.091592
0.550608 0.563576 0.092815
0.579903 0.564935 0.094039
0.609198 0.566295 0.095262
0.638494 0.567654 0.096486
0.667789 0.569014 0.097709
0.697084 0.570373 0.098933
0.726379 0.571733 0.100156
0.755674 0.573092 0.101380
0.784969 0.574452 0.102604
0.814264 0.575811 0.103827
0.843560 0.577171 0.105051
0.872855 0.578530 0.106274
0.902150 0.579890 0.107498
0.931445 0.581249 0.108721
0.960740 0.582609 0.109945
0.990035 0.583969 0.111169
1.000000 0.585328 0.112392
0.084768 0.570258 0.075640
0.114063 0.571618 0.076864
0.143359 0.572977 0.078087
0.172654 0.574337 0.079311
0.201949 0.575696 0.080534
0.231244 0.577056 0.081758
0.260539 0.578415 0.082982
0.289834 0.579775 0.084205
0.319129 0.581134 0.085429
0.348425 0.582494 0.086652
0.377720 0.583853 0.087876
0.407015 0.585213 0.089099
0.436310 0.586572 0.090323
0.465605 0.587932 0.091546
0.494900 0.589291 0.092770
0.524195 0.590651 0.093994
0.553491 0.592010 0.095217
0.582786 0.593370 0.096441
0.612081 0.594729 0.097664
0.641376 0.596089 0.098888
0.670671 0.597448 0.100111
0.699966 0.598808 0.101335
0.729262 0.600168 0.102559
0.758557 0.601527 0.103782
0.787852 0.602887 0.105006
0.817147 0.604246 0.106229
0.846442 0.605606 0.107453
0.875737 0.606965 0.108676
0.905032 0.608325 0.109900
0.934328 0.609684 0.111124
0.963623 0.611044 0.112347
0.992918 0.612403 0.113571
1.000000 0.613763 0.114794
0.087651 0.598693 0.078042
0.116946 0.600052 0.079266
0.146241 0.601412 0.080489
0.175536 0.602771 0.081713
0.204831 0.604131 0.082937
0.234126 0.605490 0.084160
0.263422 0.606850 0.085384
0.292717 0.608209 0.086607
0.322012 0.609569 0.087831
0.351307 0.610928 0.089054
0.380602 0.612288 0.090278
0.409897 0.613647 0.091501
0.439193 0.615007 0.092725
0.468488 0.616367 0.093949
0.497783 0.617726 0.095172
0.527078 0.619086 0.096396
0.556373 0.620445 0.097619
0.585668 0.621805 0.098843
0.614963 0.623164 0.100066
0.644259 0.624524 0.101290
0.673554 0.625883 0.102514
0.702849 0.627243 0.103737
0.732144 0.628602 0.104961
0.761439 0.629962 0.106184
0.790734 0.631321 0.107408
0.820030 0.632681 0.108631
0.849325 0.634040 0.109855
0.878620 0.635400 0.111079
0.907915 0.636759 0.112302
0.937210 0.638119 0.113526
0.966505 0.639478 0.114749
0.995800 0.640838 0.115973
1.000000 0.642197 0.117196
0.090533 0.627127 0.080444
0.119828 0.628487 0.081668
0.149124 0.629846 0.082892
0.178419 0.631206 0.084115
0.207714 0.632566 0.085339
0.237009 0.633925 0.086562
0.266304 0.635285 0.087786
0.295599 0.636644 0.089009
0.324894 0.638004 0.090233
0.354190 0.639363 0.091456
0.383485 0.640723 0.092680
0.412780 0.642082 0.093904
0.442075 0.643442 0.095127
0.471370 0.644801 0.096351
0.500665 0.646161 0.097574
0.529961 0.647520 0.098798
0.559256 0.648880 0.100021
0.588551 0.650239 0.101245
0.617846 0.651599 0.102469
0.647141 0.652958 0.103692
0.676436 0.654318 0.104916
0.705731 0.655677 0.106139
0.735027 0.657037 0.107363
0.764322 0.658396 0.108586
0.793617 0.659756 0.109810
0.822912 0.661115 0.111033
0.852207 0.662475 0.112257
0.881502 0.663834 0.113481
0.910798 0.665194 0.114704
0.940093 0.666553 0.115928
0.969388 0.667913 0.117151
0.998683 0.669272 0.118375
1.000000 0.670632 0.119598
0.093416 0.655562 0.082847
0.122711 0.656922 0.084070
0.152006 0.658281 0.085294
0.181301 0.659641 0.086517
0.210596 0.661000 0.087741
0.239892 0.662360 0.088964
0.269187 0.663719 0.090188
0.298482 0.665079 0.091411
0.327777 0.666438 0.092635
0.357072 0.667798 0.093859
0.386367 0.669157 0.095082
0.415662 0.670517 0.096306
0.444958 0.671876 0.097529
0.474253 0.673236 0.098753
0.503548 0.674595 0.099976
0.532843 0.675955 0.101200
0.562138 0.677314 0.102424
0.591433 0.678674 0.103647
0.620729 0.680033 0.104871
0.650024 0.681393 0.106094
0.679319 0.682752 0.107318
0.708614 0.684112 0.108541
0.737909 0.685471 0.109765
0.767204 0.686831 0.110988
0.796499 0.688190 0.112212
0.825795 0.689550 0.113436
0.855090 0.690910 0.114659
0.884385 0.692269 0.115883
0.913680 0.693629 0.117106
0.942975 0.694988 0.118330
0.972270 0.696348 0.119553
1.000000 0.697707 0.120777
1.000000 0.699067 0.122001
0.096298 0.683997 0.085249
0.125593 0.685356 0.086472
0.154889 0.686716 0.087696
0.184184 0.688075 0.088919
0.213479 0.689435 0.090143
0.242774 0.690794 0.091366
0.272069 0.692154 0.092590
0.301364 0.693513 0.093814
0.330660 0.694873 0.095037
0.359955 0.696232 0.096261
0.389250 0.697592 0.097484
0.418545 0.698951 0.098708
0.447840 0.700311 0.099931
0.477135 0.701670 0.101155
0.506430 0.703030 0.102379
0.535726 0.704389 0.103602
0.565021 0.705749 0.104826
0.594316 0.707109 0.106049
0.623611 0.708468 0.107273
0.652906 0.709828 0.108496
0.682201 0.711187 0.109720
0.711497 0.712547 0.110943
0.740792 0.713906 0.112167
0.770087 0.715266 0.113391
0.799382 0.716625 0.114614
0.828677 0.717985 0.115838
0.857972 0.719344 0.117061
0.887267 0.720704 0.118285
0.916563 0.722063 0.119508
0.945858 0.723423 0.120732
0.975153 0.724782 0.121956
1.000000 0.726142 0.123179
1.000000 0.727501 0.124403
0.099181 0.712431 0.087651
0.128476 0.713791 0.088874
0.157771 0.715150 0.090098
0.187066 0.716510 0.091321
0.216361 0.717869 0.092545
0.245657 0.719229 0.093769
0.274952 0.720588 0.094992
0.304247 0.721948 0.096216
0.333542 0.723307 0.097439
0.362837 0.724667 0.098663
0.392132 0.726027 0.099886
0.421428 0.727386 0.101110
0.450723 0.728746 0.102334
0.480018 0.730105 0.103557
0.509313 0.731465 0.104781
0.538608 0.732824 0.106004
0.567903 0.734184 0.107228
0.597198 0.735543 0.108451
0.626494 0.736903 0.109675
0.655789 0.738262 0.110898
0.685084 0.739622 0.112122
0.714379 0.740981 0.113346
0.743674 0.742341 0.114569
0.772969 0.743700 0.115793
0.802265 0.745060 0.117016
0.831560 0.746419 0.118240
0.860855 0.747779 0.119463
0.890150 0.749138 0.120687
0.919445 0.750498 0.121911
0.948740 0.751857 0.123134
0.978035 0.753217 0.124358
1.000000 0.754576 0.125581
1.000000 0.755936 0.126805
0.102063 0.740866 0.090053
0.131359 0.742226 0.091276
0.160654 0.743585 0.092500
0.189949 0.744945 0.093724
0.219244 0.746304 0.094947
0.248539 0.747664 0.096171
0.277834 0.749023 0.097394
0.307129 0.750383 0.098618
0.336425 0.751742 0.099841
0.365720 0.753102 0.101065
0.395015 0.754461 0.102288
0.424310 0.755821 0.103512
0.453605 0.757180 0.104736
0.482900 0.758540 0.105959
0.512196 0.759899 0.107183
0.541491 0.761259 0.108406
0.570786 0.762618 0.109630
0.600081 0.763978 0.110853
0.629376 0.765337 0.112077
0.658671 0.766697 0.113301
0.687966 0.768056 0.114524
0.717262 0.769416 0.115748
0.746557 0.770775 0.116971
0.775852 0.772135 0.118195
0.805147 0.773494 0.119418
0.834442 0.774854 0.120642
0.863737 0.776213 0.121866
0.893033 0.777573 0.123089
0.922328 0.778932 0.124313
0.951623 0.780292 0.125536
0.980918 0.781651 0.126760
1.000000 0.783011 0.127983
1.000000 0.784371 0.129207
0.104946 0.769301 0.092455
0.134241 0.770660 0.093679
0.163536 0.772020 0.094902
0.192831 0.773379 0.096126
0.222127 0.774739 0.097349
0.251422 0.776098 0.098573
0.280717 0.777458 0.099796
0.310012 0.778817 0.101020
0.339307 0.780177 0.102243
0.368602 0.781536 0.103467
0.397897 0.782896 0.104691
0.427193 0.784255 0.105914
0.456488 0.785615 0.107138
0.485783 0.786974 0.108361
0.515078 0.788334 0.109585
0.544373 0.789693 0.110808
0.573668 0.791053 0.112032
0.602964 0.792412 0.113256
0.632259 0.793772 0.114479
0.661554 0.795131 0.115703
0.690849 0.796491 0.116926
0.720144 0.797850 0.118150
0.749439 0.799210 0.119373
0.778734 0.800570 0.120597
0.808030 0.801929 0.121821
0.837325 0.803289 0.123044
