src/cutvoke/assets/luts/retro.cube
# Created by CutVoke generate_luts.py
TITLE retro
LUT_3D_SIZE 5
DOMAIN_MIN 0.0 0.0 0.0
DOMAIN_MAX 1.0 1.0 1.0
0.030000 0.030000 0.030000
0.264361 0.040876 0.039789
0.498722 0.051752 0.049577
0.733084 0.062628 0.059366
0.967445 0.073505 0.069154
0.053060 0.257477 0.049217
0.287422 0.268353 0.059005
0.521783 0.279229 0.068794
0.756144 0.290106 0.078582
0.990505 0.300982 0.088371
0.076121 0.484954 0.068434
0.310482 0.495830 0.078222
0.544843 0.506706 0.088011
0.779204 0.517583 0.097799
1.000000 0.528459 0.107588
0.099181 0.712431 0.087651
0.333542 0.723307 0.097439
0.567903 0.734184 0.107228
0.802265 0.745060 0.117016
1.000000 0.755936 0.126805
0.122241 0.939908 0.106868
0.356602 0.950785 0.116656
0.590964 0.961661 0.126445
0.825325 0.972537 0.136233
1.000000 0.983413 0.146022
0.034478 0.034147 0.219245
0.268840 0.045023 0.229033
0.503201 0.055899 0.238822
0.737562 0.066775 0.248610
0.971923 0.077651 0.258399
0.057539 0.261624 0.238461
0.291900 0.272500 0.248250
0.526261 0.283376 0.258039
0.760622 0.294252 0.267827
0.994984 0.305128 0.277616
0.080599 0.489101 0.257678
0.314960 0.499977 0.267467
0.549322 0.510853 0.277255
0.783683 0.521729 0.287044
1.000000 0.532606 0.296832
0.103659 0.716578 0.276895
0.338021 0.727454 0.286684
0.572382 0.738330 0.296472
0.806743 0.749206 0.306261
1.000000 0.760083 0.316049
0.126720 0.944055 0.296112
0.361081 0.954931 0.305901
0.595442 0.965808 0.315689
0.829803 0.976684 0.325478
1.000000 0.987560 0.335266
0.038957 0.038294 0.408489
0.273318 0.049170 0.418278
0.507679 0.060046 0.428066
0.742041 0.070922 0.437855
0.976402 0.081798 0.447643
0.062017 0.265771 0.427706
0.296378 0.276647 0.437495
0.530740 0.287523 0.447283
0.765101 0.298399 0.457072
0.999462 0.309275 0.466860
0.085078 0.493248 0.446923
0.319439 0.504124 0.456711
0.553800 0.515000 0.466500
0.788161 0.525876 0.476289
1.000000 0.536752 0.486077
0.108138 0.720725 0.466140
0.342499 0.731601 0.475928
0.576860 0.742477 0.485717
0.811222 0.753353 0.495505
1.000000 0.764229 0.505294
0.131198 0.948202 0.485357
0.365559 0.959078 0.495145
0.599921 0.969954 0.504934
0.834282 0.980830 0.514722
1.000000 0.991706 0.524511
0.043435 0.042440 0.597734
0.277797 0.053316 0.607522
0.512158 0.064192 0.617311
0.746519 0.075069 0.627099
0.980880 0.085945 0.636888
0.066496 0.269917 0.616951
0.300857 0.280794 0.626739
0.535218 0.291670 0.636528
0.769579 0.302546 0.646316
1.000000 0.313422 0.656105
0.089556 0.497394 0.636168
0.323917 0.508271 0.645956
0.558278 0.519147 0.655745
0.792640 0.530023 0.665533
1.000000 0.540899 0.675322
0.112616 0.724872 0.655384
0.346978 0.735748 0.665173
0.581339 0.746624 0.674961
0.815700 0.757500 0.684750
1.000000 0.768376 0.694539
0.135677 0.952349 0.674601
0.370038 0.963225 0.684390
0.604399 0.974101 0.694178
0.838760 0.984977 0.703967
1.000000 0.995853 0.713755
0.047914 0.046587 0.786978
0.282275 0.057463 0.796767
0.516636 0.068339 0.806555
0.750998 0.079215 0.816344
0.985359 0.090091 0.826132
0.070974 0.274064 0.806195
0.305335 0.284940 0.815984
0.539697 0.295816 0.825772
0.774058 0.306693 0.835561
1.000000 0.317569 0.845349
0.094035 0.501541 0.825412
0.328396 0.512417 0.835201
0.562757 0.523293 0.844989
0.797118 0.534170 0.854778
1.000000 0.545046 0.864566
0.117095 0.729018 0.844629
0.351456 0.739895 0.854418
0.585817 0.750771 0.864206
0.820178 0.761647 0.873995
1.000000 0.772523 0.883783
0.140155 0.956495 0.863846
0.374516 0.967372 0.873634
0.608878 0.978248 0.883423
0.843239 0.989124 0.893211
1.000000 1.000000 0.903000
