src/cutvoke/assets/luts/retro.cube
# Created by CutVoke generate_luts.py
TITLE retro
LUT_3D_SIZE 9
DOMAIN_MIN 0.0 0.0 0.0
DOMAIN_MAX 1.0 1.0 1.0
0.030000 0.030000 0.030000
0.147181 0.035438 0.034894
0.264361 0.040876 0.039789
0.381542 0.046314 0.044683
0.498722 0.051752 0.049577
0.615903 0.057190 0.054471
0.733084 0.062628 0.059366
0.850264 0.068066 0.064260
0.967445 0.073505 0.069154
0.041530 0.143739 0.039608
0.158711 0.149177 0.044503
0.275891 0.154615 0.049397
0.393072 0.160053 0.054291
0.510253 0.165491 0.059185
0.627433 0.170929 0.064080
0.744614 0.176367 0.068974
0.861794 0.181805 0.073868
0.978975 0.187243 0.078763
0.053060 0.257477 0.049217
0.170241 0.262915 0.054111
0.287422 0.268353 0.059005
0.404602 0.273791 0.063900
0.521783 0.279229 0.068794
0.638963 0.284667 0.073688
0.756144 0.290106 0.078582
0.873325 0.295544 0.083477
0.990505 0.300982 0.088371
0.064590 0.371216 0.058825
0.181771 0.376654 0.063720
0.298952 0.382092 0.068614
0.416132 0.387530 0.073508
0.533313 0.392968 0.078402
0.650493 0.398406 0.083297
0.767674 0.403844 0.088191
0.884855 0.409282 0.093085
1.000000 0.414720 0.097979
0.076121 0.484954 0.068434
0.193301 0.490392 0.073328
0.310482 0.495830 0.078222
0.427662 0.501268 0.083117
0.544843 0.506706 0.088011
0.662024 0.512145 0.092905
0.779204 0.517583 0.097799
0.896385 0.523021 0.102694
1.000000 0.528459 0.107588
0.087651 0.598693 0.078042
0.204831 0.604131 0.082937
0.322012 0.609569 0.087831
0.439193 0.615007 0.092725
0.556373 0.620445 0.097619
0.673554 0.625883 0.102514
0.790734 0.631321 0.107408
0.907915 0.636759 0.112302
1.000000 0.642197 0.117196
0.099181 0.712431 0.087651
0.216361 0.717869 0.092545
0.333542 0.723307 0.097439
0.450723 0.728746 0.102334
0.567903 0.734184 0.107228
0.685084 0.739622 0.112122
0.802265 0.745060 0.117016
0.919445 0.750498 0.121911
1.000000 0.755936 0.126805
0.110711 0.826170 0.097259
0.227892 0.831608 0.102153
0.345072 0.837046 0.107048
0.462253 0.842484 0.111942
0.579433 0.847922 0.116836
0.696614 0.853360 0.121730
0.813795 0.858798 0.126625
0.930975 0.864236 0.131519
1.000000 0.869674 0.136413
0.122241 0.939908 0.106868
0.239422 0.945347 0.111762
0.356602 0.950785 0.116656
0.473783 0.956223 0.121550
0.590964 0.961661 0.126445
0.708144 0.967099 0.131339
0.825325 0.972537 0.136233
0.942505 0.977975 0.141127
1.000000 0.983413 0.146022
0.032239 0.032073 0.124622
0.149420 0.037511 0.129517
0.266600 0.042950 0.134411
0.383781 0.048388 0.139305
0.500962 0.053826 0.144199
0.618142 0.059264 0.149094
0.735323 0.064702 0.153988
0.852503 0.070140 0.158882
0.969684 0.075578 0.163776
0.043769 0.145812 0.134231
0.160950 0.151250 0.139125
0.278131 0.156688 0.144019
0.395311 0.162126 0.148914
0.512492 0.167564 0.153808
0.629672 0.173002 0.158702
0.746853 0.178440 0.163596
0.864034 0.183878 0.168491
0.981214 0.189316 0.173385
0.055300 0.259551 0.143839
0.172480 0.264989 0.148733
0.289661 0.270427 0.153628
0.406841 0.275865 0.158522
0.524022 0.281303 0.163416
0.641203 0.286741 0.168310
0.758383 0.292179 0.173205
0.875564 0.297617 0.178099
0.992744 0.303055 0.182993
0.066830 0.373289 0.153448
0.184010 0.378727 0.158342
0.301191 0.384165 0.163236
0.418372 0.389603 0.168130
0.535552 0.395041 0.173025
0.652733 0.400479 0.177919
0.769913 0.405917 0.182813
0.887094 0.411355 0.187707
1.000000 0.416794 0.192602
0.078360 0.487028 0.163056
0.195540 0.492466 0.167950
0.312721 0.497904 0.172845
0.429902 0.503342 0.177739
0.547082 0.508780 0.182633
0.664263 0.514218 0.187527
0.781443 0.519656 0.192422
0.898624 0.525094 0.197316
1.000000 0.530532 0.202210
0.089890 0.600766 0.172665
0.207071 0.606204 0.177559
0.324251 0.611642 0.182453
0.441432 0.617080 0.187347
0.558612 0.622518 0.192242
0.675793 0.627956 0.197136
0.792974 0.633395 0.202030
0.910154 0.638833 0.206924
1.000000 0.644271 0.211819
0.101420 0.714505 0.182273
0.218601 0.719943 0.187167
0.335781 0.725381 0.192062
0.452962 0.730819 0.196956
0.570143 0.736257 0.201850
0.687323 0.741695 0.206744
0.804504 0.747133 0.211639
0.921684 0.752571 0.216533
1.000000 0.758009 0.221427
0.112950 0.828243 0.191881
0.230131 0.833681 0.196776
0.347311 0.839119 0.201670
0.464492 0.844557 0.206564
0.581673 0.849996 0.211459
0.698853 0.855434 0.216353
0.816034 0.860872 0.221247
0.933215 0.866310 0.226141
1.000000 0.871748 0.231036
0.124480 0.941982 0.201490
0.241661 0.947420 0.206384
0.358842 0.952858 0.211278
0.476022 0.958296 0.216173
0.593203 0.963734 0.221067
0.710383 0.969172 0.225961
0.827564 0.974610 0.230855
0.944745 0.980048 0.235750
1.000000 0.985486 0.240644
0.034478 0.034147 0.219245
0.151659 0.039585 0.224139
0.268840 0.045023 0.229033
0.386020 0.050461 0.233927
0.503201 0.055899 0.238822
0.620382 0.061337 0.243716
0.737562 0.066775 0.248610
0.854743 0.072213 0.253504
0.971923 0.077651 0.258399
0.046009 0.147885 0.228853
0.163189 0.153323 0.233747
0.280370 0.158761 0.238642
0.397550 0.164199 0.243536
0.514731 0.169638 0.248430
0.631912 0.175076 0.253324
0.749092 0.180514 0.258219
0.866273 0.185952 0.263113
0.983453 0.191390 0.268007
0.057539 0.261624 0.238461
0.174719 0.267062 0.243356
0.291900 0.272500 0.248250
0.409081 0.277938 0.253144
0.526261 0.283376 0.258039
0.643442 0.288814 0.262933
0.760622 0.294252 0.267827
0.877803 0.299690 0.272721
0.994984 0.305128 0.277616
0.069069 0.375362 0.248070
0.186250 0.380800 0.252964
0.303430 0.386239 0.257858
0.420611 0.391677 0.262753
0.537791 0.397115 0.267647
0.654972 0.402553 0.272541
0.772153 0.407991 0.277435
0.889333 0.413429 0.282330
1.000000 0.418867 0.287224
0.080599 0.489101 0.257678
0.197780 0.494539 0.262573
0.314960 0.499977 0.267467
0.432141 0.505415 0.272361
0.549322 0.510853 0.277255
0.666502 0.516291 0.282150
0.783683 0.521729 0.287044
0.900863 0.527167 0.291938
1.000000 0.532606 0.296832
0.092129 0.602840 0.267287
0.209310 0.608278 0.272181
0.326490 0.613716 0.277075
0.443671 0.619154 0.281970
0.560852 0.624592 0.286864
0.678032 0.630030 0.291758
0.795213 0.635468 0.296652
0.912393 0.640906 0.301547
1.000000 0.646344 0.306441
0.103659 0.716578 0.276895
0.220840 0.722016 0.281790
0.338021 0.727454 0.286684
0.455201 0.732892 0.291578
0.572382 0.738330 0.296472
0.689562 0.743768 0.301367
0.806743 0.749206 0.306261
0.923924 0.754645 0.311155
1.000000 0.760083 0.316049
0.115190 0.830317 0.286504
0.232370 0.835755 0.291398
0.349551 0.841193 0.296292
0.466731 0.846631 0.301187
0.583912 0.852069 0.306081
0.701093 0.857507 0.310975
0.818273 0.862945 0.315869
0.935454 0.868383 0.320764
1.000000 0.873821 0.325658
0.126720 0.944055 0.296112
0.243900 0.949493 0.301006
0.361081 0.954931 0.305901
0.478261 0.960369 0.310795
0.595442 0.965808 0.315689
0.712623 0.971246 0.320584
0.829803 0.976684 0.325478
0.946984 0.982122 0.330372
1.000000 0.987560 0.335266
0.036718 0.036220 0.313867
0.153898 0.041658 0.318761
0.271079 0.047096 0.323655
0.388260 0.052534 0.328550
0.505440 0.057972 0.333444
0.622621 0.063410 0.338338
0.739801 0.068849 0.343232
0.856982 0.074287 0.348127
0.974163 0.079725 0.353021
0.048248 0.149959 0.323475
0.165428 0.155397 0.328370
0.282609 0.160835 0.333264
0.399790 0.166273 0.338158
0.516970 0.171711 0.343052
0.634151 0.177149 0.347947
0.751332 0.182587 0.352841
0.868512 0.188025 0.357735
0.985693 0.193463 0.362629
0.059778 0.263697 0.333084
0.176959 0.269135 0.337978
0.294139 0.274573 0.342872
0.411320 0.280011 0.347767
0.528500 0.285449 0.352661
0.645681 0.290888 0.357555
0.762862 0.296326 0.362449
0.880042 0.301764 0.367344
0.997223 0.307202 0.372238
0.071308 0.377436 0.342692
0.188489 0.382874 0.347586
0.305669 0.388312 0.352481
0.422850 0.393750 0.357375
0.540031 0.399188 0.362269
0.657211 0.404626 0.367164
0.774392 0.410064 0.372058
0.891572 0.415502 0.376952
1.000000 0.420940 0.381846
0.082838 0.491174 0.352301
0.200019 0.496612 0.357195
0.317200 0.502050 0.362089
0.434380 0.507489 0.366983
0.551561 0.512927 0.371878
0.668741 0.518365 0.376772
0.785922 0.523803 0.381666
0.903103 0.529241 0.386560
1.000000 0.534679 0.391455
0.094368 0.604913 0.361909
0.211549 0.610351 0.366803
0.328730 0.615789 0.371698
0.445910 0.621227 0.376592
0.563091 0.626665 0.381486
0.680272 0.632103 0.386380
0.797452 0.637541 0.391275
0.914633 0.642979 0.396169
1.000000 0.648417 0.401063
0.105899 0.718651 0.371518
0.223079 0.724090 0.376412
0.340260 0.729528 0.381306
0.457440 0.734966 0.386200
0.574621 0.740404 0.391095
0.691802 0.745842 0.395989
0.808982 0.751280 0.400883
0.926163 0.756718 0.405777
1.000000 0.762156 0.410672
0.117429 0.832390 0.381126
0.234609 0.837828 0.386020
0.351790 0.843266 0.390915
0.468971 0.848704 0.395809
0.586151 0.854142 0.400703
0.703332 0.859580 0.405597
0.820512 0.865018 0.410492
0.937693 0.870457 0.415386
1.000000 0.875895 0.420280
0.128959 0.946129 0.390735
0.246140 0.951567 0.395629
0.363320 0.957005 0.400523
0.480501 0.962443 0.405417
0.597681 0.967881 0.410312
0.714862 0.973319 0.415206
0.832043 0.978757 0.420100
0.949223 0.984195 0.424994
1.000000 0.989633 0.429889
0.038957 0.038294 0.408489
0.156138 0.043732 0.413383
0.273318 0.049170 0.418278
0.390499 0.054608 0.423172
0.507679 0.060046 0.428066
0.624860 0.065484 0.432960
0.742041 0.070922 0.437855
0.859221 0.076360 0.442749
0.976402 0.081798 0.447643
0.050487 0.152032 0.418098
0.167668 0.157470 0.422992
0.284848 0.162908 0.427886
0.402029 0.168346 0.432780
0.519210 0.173784 0.437675
0.636390 0.179222 0.442569
0.753571 0.184660 0.447463
0.870751 0.190098 0.452357
0.987932 0.195537 0.457252
0.062017 0.265771 0.427706
0.179198 0.271209 0.432600
0.296378 0.276647 0.437495
0.413559 0.282085 0.442389
0.530740 0.287523 0.447283
0.647920 0.292961 0.452177
0.765101 0.298399 0.457072
0.882282 0.303837 0.461966
0.999462 0.309275 0.466860
0.073547 0.379509 0.437315
0.190728 0.384947 0.442209
0.307909 0.390385 0.447103
0.425089 0.395823 0.451997
0.542270 0.401261 0.456892
0.659450 0.406699 0.461786
0.776631 0.412138 0.466680
0.893812 0.417576 0.471574
1.000000 0.423014 0.476469
0.085078 0.493248 0.446923
0.202258 0.498686 0.451817
0.319439 0.504124 0.456711
0.436619 0.509562 0.461606
0.553800 0.515000 0.466500
0.670981 0.520438 0.471394
0.788161 0.525876 0.476289
0.905342 0.531314 0.481183
1.000000 0.536752 0.486077
0.096608 0.606986 0.456531
0.213788 0.612424 0.461426
0.330969 0.617862 0.466320
0.448150 0.623301 0.471214
0.565330 0.628739 0.476108
0.682511 0.634177 0.481003
0.799691 0.639615 0.485897
0.916872 0.645053 0.490791
1.000000 0.650491 0.495685
0.108138 0.720725 0.466140
0.225318 0.726163 0.471034
0.342499 0.731601 0.475928
0.459680 0.737039 0.480823
0.576860 0.742477 0.485717
0.694041 0.747915 0.490611
0.811222 0.753353 0.495505
0.928402 0.758791 0.500400
1.000000 0.764229 0.505294
0.119668 0.834463 0.475748
0.236849 0.839902 0.480643
0.354029 0.845340 0.485537
0.471210 0.850778 0.490431
0.588390 0.856216 0.495325
0.705571 0.861654 0.500220
0.822752 0.867092 0.505114
0.939932 0.872530 0.510008
1.000000 0.877968 0.514902
0.131198 0.948202 0.485357
0.248379 0.953640 0.490251
0.365559 0.959078 0.495145
0.482740 0.964516 0.500040
0.599921 0.969954 0.504934
0.717101 0.975392 0.509828
0.834282 0.980830 0.514722
0.951462 0.986268 0.519617
1.000000 0.991706 0.524511
0.041196 0.040367 0.503111
0.158377 0.045805 0.508006
0.275557 0.051243 0.512900
0.392738 0.056681 0.517794
0.509919 0.062119 0.522688
0.627099 0.067557 0.527583
0.744280 0.072995 0.532477
0.861460 0.078433 0.537371
0.978641 0.083871 0.542265
0.052726 0.154105 0.512720
0.169907 0.159544 0.517614
0.287088 0.164982 0.522508
0.404268 0.170420 0.527403
0.521449 0.175858 0.532297
0.638629 0.181296 0.537191
0.755810 0.186734 0.542085
0.872991 0.192172 0.546980
0.990171 0.197610 0.551874
0.064257 0.267844 0.522328
0.181437 0.273282 0.527223
0.298618 0.278720 0.532117
0.415798 0.284158 0.537011
0.532979 0.289596 0.541905
0.650160 0.295034 0.546800
0.767340 0.300472 0.551694
0.884521 0.305910 0.556588
1.000000 0.311348 0.561482
0.075787 0.381583 0.531937
0.192967 0.387021 0.536831
0.310148 0.392459 0.541725
0.427328 0.397897 0.546620
0.544509 0.403335 0.551514
0.661690 0.408773 0.556408
0.778870 0.414211 0.561302
0.896051 0.419649 0.566197
1.000000 0.425087 0.571091
0.087317 0.495321 0.541545
0.204497 0.500759 0.546440
0.321678 0.506197 0.551334
0.438859 0.511635 0.556228
0.556039 0.517073 0.561122
0.673220 0.522511 0.566017
0.790400 0.527949 0.570911
0.907581 0.533388 0.575805
1.000000 0.538826 0.580699
0.098847 0.609060 0.551154
0.216028 0.614498 0.556048
0.333208 0.619936 0.560942
0.450389 0.625374 0.565836
0.567569 0.630812 0.570731
0.684750 0.636250 0.575625
0.801931 0.641688 0.580519
0.919111 0.647126 0.585414
1.000000 0.652564 0.590308
0.110377 0.722798 0.560762
0.227558 0.728236 0.565656
0.344738 0.733674 0.570551
0.461919 0.739112 0.575445
0.579100 0.744550 0.580339
0.696280 0.749989 0.585233
0.813461 0.755427 0.590128
0.930641 0.760865 0.595022
1.000000 0.766303 0.599916
0.121907 0.836537 0.570371
0.239088 0.841975 0.575265
0.356268 0.847413 0.580159
0.473449 0.852851 0.585053
0.590630 0.858289 0.589948
0.707810 0.863727 0.594842
0.824991 0.869165 0.599736
0.942172 0.874603 0.604630
1.000000 0.880041 0.609525
0.133437 0.950275 0.579979
0.250618 0.955713 0.584873
0.367799 0.961151 0.589768
0.484979 0.966590 0.594662
0.602160 0.972028 0.599556
0.719340 0.977466 0.604450
0.836521 0.982904 0.609345
0.953702 0.988342 0.614239
1.000000 0.993780 0.619133
0.043435 0.042440 0.597734
0.160616 0.047878 0.602628
0.277797 0.053316 0.607522
0.394977 0.058754 0.612416
0.512158 0.064192 0.617311
0.629339 0.069631 0.622205
0.746519 0.075069 0.627099
0.863700 0.080507 0.631994
0.980880 0.085945 0.636888
0.054966 0.156179 0.607342
0.172146 0.161617 0.612236
0.289327 0.167055 0.617131
0.406507 0.172493 0.622025
0.523688 0.177931 0.626919
0.640869 0.183369 0.631813
0.758049 0.188807 0.636708
0.875230 0.194245 0.641602
0.992410 0.199683 0.646496
0.066496 0.269917 0.616951
0.183676 0.275355 0.621845
0.300857 0.280794 0.626739
0.418038 0.286232 0.631633
0.535218 0.291670 0.636528
0.652399 0.297108 0.641422
0.769579 0.302546 0.646316
0.886760 0.307984 0.651210
1.000000 0.313422 0.656105
0.078026 0.383656 0.626559
0.195207 0.389094 0.631453
0.312387 0.394532 0.636348
0.429568 0.399970 0.641242
0.546748 0.405408 0.646136
0.663929 0.410846 0.651030
0.781110 0.416284 0.655925
0.898290 0.421722 0.660819
1.000000 0.427160 0.665713
0.089556 0.497394 0.636168
0.206737 0.502833 0.641062
0.323917 0.508271 0.645956
0.441098 0.513709 0.650850
0.558278 0.519147 0.655745
0.675459 0.524585 0.660639
0.792640 0.530023 0.665533
0.909820 0.535461 0.670427
1.000000 0.540899 0.675322
0.101086 0.611133 0.645776
0.218267 0.616571 0.650670
0.335447 0.622009 0.655565
0.452628 0.627447 0.660459
0.569809 0.632885 0.665353
0.686989 0.638323 0.670247
0.804170 0.643761 0.675142
0.921350 0.649199 0.680036
1.000000 0.654638 0.684930
0.112616 0.724872 0.655384
0.229797 0.730310 0.660279
0.346978 0.735748 0.665173
0.464158 0.741186 0.670067
0.581339 0.746624 0.674961
0.698519 0.752062 0.679856
0.815700 0.757500 0.684750
0.932881 0.762938 0.689644
1.000000 0.768376 0.694539
0.124147 0.838610 0.664993
0.241327 0.844048 0.669887
0.358508 0.849486 0.674781
0.475688 0.854924 0.679676
0.592869 0.860362 0.684570
0.710050 0.865801 0.689464
0.827230 0.871239 0.694358
0.944411 0.876677 0.699253
1.000000 0.882115 0.704147
0.135677 0.952349 0.674601
0.252857 0.957787 0.679496
0.370038 0.963225 0.684390
0.487218 0.968663 0.689284
0.604399 0.974101 0.694178
0.721580 0.979539 0.699073
0.838760 0.984977 0.703967
0.955941 0.990415 0.708861
1.000000 0.995853 0.713755
0.045675 0.044514 0.692356
0.162855 0.049952 0.697250
0.280036 0.055390 0.702145
0.397217 0.060828 0.707039
0.514397 0.066266 0.711933
0.631578 0.071704 0.716827
0.748758 0.077142 0.721722
0.865939 0.082580 0.726616
0.983120 0.088018 0.731510
0.057205 0.158252 0.701964
0.174385 0.163690 0.706859
0.291566 0.169128 0.711753
0.408747 0.174566 0.716647
0.525927 0.180004 0.721541
0.643108 0.185443 0.726436
0.760289 0.190881 0.731330
0.877469 0.196319 0.736224
0.994650 0.201757 0.741119
0.068735 0.271991 0.711573
0.185916 0.277429 0.716467
0.303096 0.282867 0.721361
0.420277 0.288305 0.726256
0.537457 0.293743 0.731150
0.654638 0.299181 0.736044
0.771819 0.304619 0.740938
0.888999 0.310057 0.745833
1.000000 0.315495 0.750727
0.080265 0.385729 0.721181
0.197446 0.391167 0.726076
0.314626 0.396605 0.730970
0.431807 0.402043 0.735864
0.548988 0.407482 0.740758
0.666168 0.412920 0.745653
0.783349 0.418358 0.750547
0.900529 0.423796 0.755441
1.000000 0.429234 0.760335
0.091795 0.499468 0.730790
0.208976 0.504906 0.735684
0.326157 0.510344 0.740578
0.443337 0.515782 0.745473
0.560518 0.521220 0.750367
0.677698 0.526658 0.755261
0.794879 0.532096 0.760155
0.912060 0.537534 0.765050
1.000000 0.542972 0.769944
0.103325 0.613206 0.740398
0.220506 0.618645 0.745293
0.337687 0.624083 0.750187
0.454867 0.629521 0.755081
0.572048 0.634959 0.759975
0.689228 0.640397 0.764870
0.806409 0.645835 0.769764
0.923590 0.651273 0.774658
1.000000 0.656711 0.779552
0.114856 0.726945 0.750007
0.232036 0.732383 0.754901
0.349217 0.737821 0.759795
0.466397 0.743259 0.764690
0.583578 0.748697 0.769584
0.700759 0.754135 0.774478
0.817939 0.759573 0.779372
0.935120 0.765011 0.784267
1.000000 0.770450 0.789161
0.126386 0.840684 0.759615
0.243566 0.846122 0.764509
0.360747 0.851560 0.769404
0.477928 0.856998 0.774298
0.595108 0.862436 0.779192
0.712289 0.867874 0.784086
0.829469 0.873312 0.788981
0.946650 0.878750 0.793875
1.000000 0.884188 0.798769
0.137916 0.954422 0.769224
0.255097 0.959860 0.774118
0.372277 0.965298 0.779012
0.489458 0.970736 0.783906
0.606638 0.976174 0.788801
0.723819 0.981612 0.793695
0.841000 0.987051 0.798589
0.958180 0.992489 0.803483
1.000000 0.997927 0.808378
0.047914 0.046587 0.786978
0.165095 0.052025 0.791873
0.282275 0.057463 0.796767
0.399456 0.062901 0.801661
0.516636 0.068339 0.806555
0.633817 0.073777 0.811450
0.750998 0.079215 0.816344
0.868178 0.084653 0.821238
0.985359 0.090091 0.826132
0.059444 0.160326 0.796587
0.176625 0.165764 0.801481
0.293805 0.171202 0.806375
0.410986 0.176640 0.811270
0.528167 0.182078 0.816164
0.645347 0.187516 0.821058
0.762528 0.192954 0.825952
0.879708 0.198392 0.830847
0.996889 0.203830 0.835741
0.070974 0.274064 0.806195
0.188155 0.279502 0.811089
0.305335 0.284940 0.815984
0.422516 0.290378 0.820878
0.539697 0.295816 0.825772
0.656877 0.301254 0.830666
0.774058 0.306693 0.835561
0.891239 0.312131 0.840455
1.000000 0.317569 0.845349
0.082504 0.387803 0.815804
0.199685 0.393241 0.820698
0.316866 0.398679 0.825592
0.434046 0.404117 0.830486
0.551227 0.409555 0.835381
0.668407 0.414993 0.840275
0.785588 0.420431 0.845169
0.902769 0.425869 0.850063
1.000000 0.431307 0.854958
0.094035 0.501541 0.825412
0.211215 0.506979 0.830306
0.328396 0.512417 0.835201
0.445576 0.517855 0.840095
0.562757 0.523293 0.844989
0.679938 0.528732 0.849883
0.797118 0.534170 0.854778
0.914299 0.539608 0.859672
1.000000 0.545046 0.864566
0.105565 0.615280 0.835021
0.222745 0.620718 0.839915
0.339926 0.626156 0.844809
0.457107 0.631594 0.849703
0.574287 0.637032 0.854598
0.691468 0.642470 0.859492
0.808648 0.647908 0.864386
0.925829 0.653346 0.869280
1.000000 0.658784 0.874175
0.117095 0.729018 0.844629
0.234275 0.734456 0.849523
0.351456 0.739895 0.854418
0.468637 0.745333 0.859312
0.585817 0.750771 0.864206
0.702998 0.756209 0.869100
0.820178 0.761647 0.873995
0.937359 0.767085 0.878889
1.000000 0.772523 0.883783
0.128625 0.842757 0.854237
0.245806 0.848195 0.859132
0.362986 0.853633 0.864026
0.480167 0.859071 0.868920
0.597347 0.864509 0.873815
0.714528 0.869947 0.878709
0.831709 0.875385 0.883603
0.948889 0.880823 0.888497
1.000000 0.886261 0.893392
0.140155 0.956495 0.863846
0.257336 0.961934 0.868740
0.374516 0.967372 0.873634
0.491697 0.972810 0.878529
0.608878 0.978248 0.883423
0.726058 0.983686 0.888317
0.843239 0.989124 0.893211
0.960419 0.994562 0.898106
1.000000 1.000000 0.903000
