src/cutvoke/assets/luts/warm.cube
# Created by CutVoke generate_luts.py
TITLE warm
LUT_3D_SIZE 33
DOMAIN_MIN 0.0 0.0 0.0
DOMAIN_MAX 1.0 1.0 1.0
0.000000 0.000000 0.000000
0.035000 0.000000 0.000000
0.070000 0.000000 0.000000
0.105000 0.000000 0.000000
0.140000 0.000000 0.000000
0.175000 0.000000 0.000000
0.210000 0.000000 0.000000
0.245000 0.000000 0.000000
0.280000 0.000000 0.000000
0.315000 0.000000 0.000000
0.350000 0.000000 0.000000
0.385000 0.000000 0.000000
0.420000 0.000000 0.000000
0.455000 0.000000 0.000000
0.490000 0.000000 0.000000
0.525000 0.000000 0.000000
0.560000 0.000000 0.000000
0.595000 0.000000 0.000000
0.630000 0.000000 0.000000
0.665000 0.000000 0.000000
0.700000 0.000000 0.000000
0.735000 0.000000 0.000000
0.770000 0.000000 0.000000
0.805000 0.000000 0.000000
0.840000 0.000000 0.000000
0.875000 0.000000 0.000000
0.910000 0.000000 0.000000
0.945000 0.000000 0.000000
0.980000 0.000000 0.000000
1.000000 0.000000 0.000000
1.000000 0.000000 0.000000
1.000000 0.000000 0.000000
1.000000 0.000000 0.000000
0.000000 0.031875 0.000000
0.035000 0.031875 0.000000
0.070000 0.031875 0.000000
0.105000 0.031875 0.000000
0.140000 0.031875 0.000000
0.175000 0.031875 0.000000
0.210000 0.031875 0.000000
0.245000 0.031875 0.000000
0.280000 0.031875 0.000000
0.315000 0.031875 0.000000
0.350000 0.031875 0.000000
0.385000 0.031875 0.000000
0.420000 0.031875 0.000000
0.455000 0.031875 0.000000
0.490000 0.031875 0.000000
0.525000 0.031875 0.000000
0.560000 0.031875 0.000000
0.595000 0.031875 0.000000
0.630000 0.031875 0.000000
0.665000 0.031875 0.000000
0.700000 0.031875 0.000000
0.735000 0.031875 0.000000
0.770000 0.031875 0.000000
0.805000 0.031875 0.000000
0.840000 0.031875 0.000000
0.875000 0.031875 0.000000
0.910000 0.031875 0.000000
0.945000 0.031875 0.000000
0.980000 0.031875 0.000000
1.000000 0.031875 0.000000
1.000000 0.031875 0.000000
1.000000 0.031875 0.000000
1.000000 0.031875 0.000000
0.000000 0.063750 0.000000
0.035000 0.063750 0.000000
0.070000 0.063750 0.000000
0.105000 0.063750 0.000000
0.140000 0.063750 0.000000
0.175000 0.063750 0.000000
0.210000 0.063750 0.000000
0.245000 0.063750 0.000000
0.280000 0.063750 0.000000
0.315000 0.063750 0.000000
0.350000 0.063750 0.000000
0.385000 0.063750 0.000000
0.420000 0.063750 0.000000
0.455000 0.063750 0.000000
0.490000 0.063750 0.000000
0.525000 0.063750 0.000000
0.560000 0.063750 0.000000
0.595000 0.063750 0.000000
0.630000 0.063750 0.000000
0.665000 0.063750 0.000000
0.700000 0.063750 0.000000
0.735000 0.063750 0.000000
0.770000 0.063750 0.000000
0.805000 0.063750 0.000000
0.840000 0.063750 0.000000
0.875000 0.063750 0.000000
0.910000 0.063750 0.000000
0.945000 0.063750 0.000000
0.980000 0.063750 0.000000
1.000000 0.063750 0.000000
1.000000 0.063750 0.000000
1.000000 0.063750 0.000000
1.000000 0.063750 0.000000
0.000000 0.095625 0.000000
0.035000 0.095625 0.000000
0.070000 0.095625 0.000000
0.105000 0.095625 0.000000
0.140000 0.095625 0.000000
0.175000 0.095625 0.000000
0.210000 0.095625 0.000000
0.245000 0.095625 0.000000
0.280000 0.095625 0.000000
0.315000 0.095625 0.000000
0.350000 0.095625 0.000000
0.385000 0.095625 0.000000
0.420000 0.095625 0.000000
0.455000 0.095625 0.000000
0.490000 0.095625 0.000000
0.525000 0.095625 0.000000
0.560000 0.095625 0.000000
0.595000 0.095625 0.000000
0.630000 0.095625 0.000000
0.665000 0.095625 0.000000
0.700000 0.095625 0.000000
0.735000 0.095625 0.000000
0.770000 0.095625 0.000000
0.805000 0.095625 0.000000
0.840000 0.095625 0.000000
0.875000 0.095625 0.000000
0.910000 0.095625 0.000000
0.945000 0.095625 0.000000
0.980000 0.095625 0.000000
1.000000 0.095625 0.000000
1.000000 0.095625 0.000000
1.000000 0.095625 0.000000
1.000000 0.095625 0.000000
0.000000 0.127500 0.000000
0.035000 0.127500 0.000000
0.070000 0.127500 0.000000
0.105000 0.127500 0.000000
0.140000 0.127500 0.000000
0.175000 0.127500 0.000000
0.210000 0.127500 0.000000
0.245000 0.127500 0.000000
0.280000 0.127500 0.000000
0.315000 0.127500 0.000000
0.350000 0.127500 0.000000
0.385000 0.127500 0.000000
0.420000 0.127500 0.000000
0.455000 0.127500 0.000000
0.490000 0.127500 0.000000
0.525000 0.127500 0.000000
0.560000 0.127500 0.000000
0.595000 0.127500 0.000000
0.630000 0.127500 0.000000
0.665000 0.127500 0.000000
0.700000 0.127500 0.000000
0.735000 0.127500 0.000000
0.770000 0.127500 0.000000
0.805000 0.127500 0.000000
0.840000 0.127500 0.000000
0.875000 0.127500 0.000000
0.910000 0.127500 0.000000
0.945000 0.127500 0.000000
0.980000 0.127500 0.000000
1.000000 0.127500 0.000000
1.000000 0.127500 0.000000
1.000000 0.127500 0.000000
1.000000 0.127500 0.000000
0.000000 0.159375 0.000000
0.035000 0.159375 0.000000
0.070000 0.159375 0.000000
0.105000 0.159375 0.000000
0.140000 0.159375 0.000000
0.175000 0.159375 0.000000
0.210000 0.159375 0.000000
0.245000 0.159375 0.000000
0.280000 0.159375 0.000000
0.315000 0.159375 0.000000
0.350000 0.159375 0.000000
0.385000 0.159375 0.000000
0.420000 0.159375 0.000000
0.455000 0.159375 0.000000
0.490000 0.159375 0.000000
0.525000 0.159375 0.000000
0.560000 0.159375 0.000000
0.595000 0.159375 0.000000
0.630000 0.159375 0.000000
0.665000 0.159375 0.000000
0.700000 0.159375 0.000000
0.735000 0.159375 0.000000
0.770000 0.159375 0.000000
0.805000 0.159375 0.000000
0.840000 0.159375 0.000000
0.875000 0.159375 0.000000
0.910000 0.159375 0.000000
0.945000 0.159375 0.000000
0.980000 0.159375 0.000000
1.000000 0.159375 0.000000
1.000000 0.159375 0.000000
1.000000 0.159375 0.000000
1.000000 0.159375 0.000000
0.000000 0.191250 0.000000
0.035000 0.191250 0.000000
0.070000 0.191250 0.000000
0.105000 0.191250 0.000000
0.140000 0.191250 0.000000
0.175000 0.191250 0.000000
0.210000 0.191250 0.000000
0.245000 0.191250 0.000000
0.280000 0.191250 0.000000
0.315000 0.191250 0.000000
0.350000 0.191250 0.000000
0.385000 0.191250 0.000000
0.420000 0.191250 0.000000
0.455000 0.191250 0.000000
0.490000 0.191250 0.000000
0.525000 0.191250 0.000000
0.560000 0.191250 0.000000
0.595000 0.191250 0.000000
0.630000 0.191250 0.000000
0.665000 0.191250 0.000000
0.700000 0.191250 0.000000
0.735000 0.191250 0.000000
0.770000 0.191250 0.000000
0.805000 0.191250 0.000000
0.840000 0.191250 0.000000
0.875000 0.191250 0.000000
0.910000 0.191250 0.000000
0.945000 0.191250 0.000000
0.980000 0.191250 0.000000
1.000000 0.191250 0.000000
1.000000 0.191250 0.000000
1.000000 0.191250 0.000000
1.000000 0.191250 0.000000
0.000000 0.223125 0.000000
0.035000 0.223125 0.000000
0.070000 0.223125 0.000000
0.105000 0.223125 0.000000
0.140000 0.223125 0.000000
0.175000 0.223125 0.000000
0.210000 0.223125 0.000000
0.245000 0.223125 0.000000
0.280000 0.223125 0.000000
0.315000 0.223125 0.000000
0.350000 0.223125 0.000000
0.385000 0.223125 0.000000
0.420000 0.223125 0.000000
0.455000 0.223125 0.000000
0.490000 0.223125 0.000000
0.525000 0.223125 0.000000
0.560000 0.223125 0.000000
0.595000 0.223125 0.000000
0.630000 0.223125 0.000000
0.665000 0.223125 0.000000
0.700000 0.223125 0.000000
0.735000 0.223125 0.000000
0.770000 0.223125 0.000000
0.805000 0.223125 0.000000
0.840000 0.223125 0.000000
0.875000 0.223125 0.000000
0.910000 0.223125 0.000000
0.945000 0.223125 0.000000
0.980000 0.223125 0.000000
1.000000 0.223125 0.000000
1.000000 0.223125 0.000000
1.000000 0.223125 0.000000
1.000000 0.223125 0.000000
0.000000 0.255000 0.000000
0.035000 0.255000 0.000000
0.070000 0.255000 0.000000
0.105000 0.255000 0.000000
0.140000 0.255000 0.000000
0.175000 0.255000 0.000000
0.210000 0.255000 0.000000
0.245000 0.255000 0.000000
0.280000 0.255000 0.000000
0.315000 0.255000 0.000000
0.350000 0.255000 0.000000
0.385000 0.255000 0.000000
0.420000 0.255000 0.000000
0.455000 0.255000 0.000000
0.490000 0.255000 0.000000
0.525000 0.255000 0.000000
0.560000 0.255000 0.000000
0.595000 0.255000 0.000000
0.630000 0.255000 0.000000
0.665000 0.255000 0.000000
0.700000 0.255000 0.000000
0.735000 0.255000 0.000000
0.770000 0.255000 0.000000
0.805000 0.255000 0.000000
0.840000 0.255000 0.000000
0.875000 0.255000 0.000000
0.910000 0.255000 0.000000
0.945000 0.255000 0.000000
0.980000 0.255000 0.000000
1.000000 0.255000 0.000000
1.000000 0.255000 0.000000
1.000000 0.255000 0.000000
1.000000 0.255000 0.000000
0.000000 0.286875 0.000000
0.035000 0.286875 0.000000
0.070000 0.286875 0.000000
0.105000 0.286875 0.000000
0.140000 0.286875 0.000000
0.175000 0.286875 0.000000
0.210000 0.286875 0.000000
0.245000 0.286875 0.000000
0.280000 0.286875 0.000000
0.315000 0.286875 0.000000
0.350000 0.286875 0.000000
0.385000 0.286875 0.000000
0.420000 0.286875 0.000000
0.455000 0.286875 0.000000
0.490000 0.286875 0.000000
0.525000 0.286875 0.000000
0.560000 0.286875 0.000000
0.595000 0.286875 0.000000
0.630000 0.286875 0.000000
0.665000 0.286875 0.000000
0.700000 0.286875 0.000000
0.735000 0.286875 0.000000
0.770000 0.286875 0.000000
0.805000 0.286875 0.000000
0.840000 0.286875 0.000000
0.875000 0.286875 0.000000
0.910000 0.286875 0.000000
0.945000 0.286875 0.000000
0.980000 0.286875 0.000000
1.000000 0.286875 0.000000
1.000000 0.286875 0.000000
1.000000 0.286875 0.000000
1.000000 0.286875 0.000000
0.000000 0.318750 0.000000
0.035000 0.318750 0.000000
0.070000 0.318750 0.000000
0.105000 0.318750 0.000000
0.140000 0.318750 0.000000
0.175000 0.318750 0.000000
0.210000 0.318750 0.000000
0.245000 0.318750 0.000000
0.280000 0.318750 0.000000
0.315000 0.318750 0.000000
0.350000 0.318750 0.000000
0.385000 0.318750 0.000000
0.420000 0.318750 0.000000
0.455000 0.318750 0.000000
0.490000 0.318750 0.000000
0.525000 0.318750 0.000000
0.560000 0.318750 0.000000
0.595000 0.318750 0.000000
0.630000 0.318750 0.000000
0.665000 0.318750 0.000000
0.700000 0.318750 0.000000
0.735000 0.318750 0.000000
0.770000 0.318750 0.000000
0.805000 0.318750 0.000000
0.840000 0.318750 0.000000
0.875000 0.318750 0.000000
0.910000 0.318750 0.000000
0.945000 0.318750 0.000000
0.980000 0.318750 0.000000
1.000000 0.318750 0.000000
1.000000 0.318750 0.000000
1.000000 0.318750 0.000000
1.000000 0.318750 0.000000
0.000000 0.350625 0.000000
0.035000 0.350625 0.000000
0.070000 0.350625 0.000000
0.105000 0.350625 0.000000
0.140000 0.350625 0.000000
0.175000 0.350625 0.000000
0.210000 0.350625 0.000000
0.245000 0.350625 0.000000
0.280000 0.350625 0.000000
0.315000 0.350625 0.000000
0.350000 0.350625 0.000000
0.385000 0.350625 0.000000
0.420000 0.350625 0.000000
0.455000 0.350625 0.000000
0.490000 0.350625 0.000000
0.525000 0.350625 0.000000
0.560000 0.350625 0.000000
0.595000 0.350625 0.000000
0.630000 0.350625 0.000000
0.665000 0.350625 0.000000
0.700000 0.350625 0.000000
0.735000 0.350625 0.000000
0.770000 0.350625 0.000000
0.805000 0.350625 0.000000
0.840000 0.350625 0.000000
0.875000 0.350625 0.000000
0.910000 0.350625 0.000000
0.945000 0.350625 0.000000
0.980000 0.350625 0.000000
1.000000 0.350625 0.000000
1.000000 0.350625 0.000000
1.000000 0.350625 0.000000
1.000000 0.350625 0.000000
0.000000 0.382500 0.000000
0.035000 0.382500 0.000000
0.070000 0.382500 0.000000
0.105000 0.382500 0.000000
0.140000 0.382500 0.000000
0.175000 0.382500 0.000000
0.210000 0.382500 0.000000
0.245000 0.382500 0.000000
0.280000 0.382500 0.000000
0.315000 0.382500 0.000000
0.350000 0.382500 0.000000
0.385000 0.382500 0.000000
0.420000 0.382500 0.000000
0.455000 0.382500 0.000000
0.490000 0.382500 0.000000
0.525000 0.382500 0.000000
0.560000 0.382500 0.000000
0.595000 0.382500 0.000000
0.630000 0.382500 0.000000
0.665000 0.382500 0.000000
0.700000 0.382500 0.000000
0.735000 0.382500 0.000000
0.770000 0.382500 0.000000
0.805000 0.382500 0.000000
0.840000 0.382500 0.000000
0.875000 0.382500 0.000000
0.910000 0.382500 0.000000
0.945000 0.382500 0.000000
0.980000 0.382500 0.000000
1.000000 0.382500 0.000000
1.000000 0.382500 0.000000
1.000000 0.382500 0.000000
1.000000 0.382500 0.000000
0.000000 0.414375 0.000000
0.035000 0.414375 0.000000
0.070000 0.414375 0.000000
0.105000 0.414375 0.000000
0.140000 0.414375 0.000000
0.175000 0.414375 0.000000
0.210000 0.414375 0.000000
0.245000 0.414375 0.000000
0.280000 0.414375 0.000000
0.315000 0.414375 0.000000
0.350000 0.414375 0.000000
0.385000 0.414375 0.000000
0.420000 0.414375 0.000000
0.455000 0.414375 0.000000
0.490000 0.414375 0.000000
0.525000 0.414375 0.000000
0.560000 0.414375 0.000000
0.595000 0.414375 0.000000
0.630000 0.414375 0.000000
0.665000 0.414375 0.000000
0.700000 0.414375 0.000000
0.735000 0.414375 0.000000
0.770000 0.414375 0.000000
0.805000 0.414375 0.000000
0.840000 0.414375 0.000000
0.875000 0.414375 0.000000
0.910000 0.414375 0.000000
0.945000 0.414375 0.000000
0.980000 0.414375 0.000000
1.000000 0.414375 0.000000
1.000000 0.414375 0.000000
1.000000 0.414375 0.000000
1.000000 0.414375 0.000000
0.000000 0.446250 0.000000
0.035000 0.446250 0.000000
0.070000 0.446250 0.000000
0.105000 0.446250 0.000000
0.140000 0.446250 0.000000
0.175000 0.446250 0.000000
0.210000 0.446250 0.000000
0.245000 0.446250 0.000000
0.280000 0.446250 0.000000
0.315000 0.446250 0.000000
0.350000 0.446250 0.000000
0.385000 0.446250 0.000000
0.420000 0.446250 0.000000
0.455000 0.446250 0.000000
0.490000 0.446250 0.000000
0.525000 0.446250 0.000000
0.560000 0.446250 0.000000
0.595000 0.446250 0.000000
0.630000 0.446250 0.000000
0.665000 0.446250 0.000000
0.700000 0.446250 0.000000
0.735000 0.446250 0.000000
0.770000 0.446250 0.000000
0.805000 0.446250 0.000000
0.840000 0.446250 0.000000
0.875000 0.446250 0.000000
0.910000 0.446250 0.000000
0.945000 0.446250 0.000000
0.980000 0.446250 0.000000
1.000000 0.446250 0.000000
1.000000 0.446250 0.000000
1.000000 0.446250 0.000000
1.000000 0.446250 0.000000
0.000000 0.478125 0.000000
0.035000 0.478125 0.000000
0.070000 0.478125 0.000000
0.105000 0.478125 0.000000
0.140000 0.478125 0.000000
0.175000 0.478125 0.000000
0.210000 0.478125 0.000000
0.245000 0.478125 0.000000
0.280000 0.478125 0.000000
0.315000 0.478125 0.000000
0.350000 0.478125 0.000000
0.385000 0.478125 0.000000
0.420000 0.478125 0.000000
0.455000 0.478125 0.000000
0.490000 0.478125 0.000000
0.525000 0.478125 0.000000
0.560000 0.478125 0.000000
0.595000 0.478125 0.000000
0.630000 0.478125 0.000000
0.665000 0.478125 0.000000
0.700000 0.478125 0.000000
0.735000 0.478125 0.000000
0.770000 0.478125 0.000000
0.805000 0.478125 0.000000
0.840000 0.478125 0.000000
0.875000 0.478125 0.000000
0.910000 0.478125 0.000000
0.945000 0.478125 0.000000
0.980000 0.478125 0.000000
1.000000 0.478125 0.000000
1.000000 0.478125 0.000000
1.000000 0.478125 0.000000
1.000000 0.478125 0.000000
0.000000 0.510000 0.000000
0.035000 0.510000 0.000000
0.070000 0.510000 0.000000
0.105000 0.510000 0.000000
0.140000 0.510000 0.000000
0.175000 0.510000 0.000000
0.210000 0.510000 0.000000
0.245000 0.510000 0.000000
0.280000 0.510000 0.000000
0.315000 0.510000 0.000000
0.350000 0.510000 0.000000
0.385000 0.510000 0.000000
0.420000 0.510000 0.000000
0.455000 0.510000 0.000000
0.490000 0.510000 0.000000
0.525000 0.510000 0.000000
0.560000 0.510000 0.000000
0.595000 0.510000 0.000000
0.630000 0.510000 0.000000
0.665000 0.510000 0.000000
0.700000 0.510000 0.000000
0.735000 0.510000 0.000000
0.770000 0.510000 0.000000
0.805000 0.510000 0.000000
0.840000 0.510000 0.000000
0.875000 0.510000 0.000000
0.910000 0.510000 0.000000
0.945000 0.510000 0.000000
0.980000 0.510000 0.000000
1.000000 0.510000 0.000000
1.000000 0.510000 0.000000
1.000000 0.510000 0.000000
1.000000 0.510000 0.000000
0.000000 0.541875 0.000000
0.035000 0.541875 0.000000
0.070000 0.541875 0.000000
0.105000 0.541875 0.000000
0.140000 0.541875 0.000000
0.175000 0.541875 0.000000
0.210000 0.541875 0.000000
0.245000 0.541875 0.000000
0.280000 0.541875 0.000000
0.315000 0.541875 0.000000
0.350000 0.541875 0.000000
0.385000 0.541875 0.000000
0.420000 0.541875 0.000000
0.455000 0.541875 0.000000
0.490000 0.541875 0.000000
0.525000 0.541875 0.000000
0.560000 0.541875 0.000000
0.595000 0.541875 0.000000
0.630000 0.541875 0.000000
0.665000 0.541875 0.000000
0.700000 0.541875 0.000000
0.735000 0.541875 0.000000
0.770000 0.541875 0.000000
0.805000 0.541875 0.000000
0.840000 0.541875 0.000000
0.875000 0.541875 0.000000
0.910000 0.541875 0.000000
0.945000 0.541875 0.000000
0.980000 0.541875 0.000000
1.000000 0.541875 0.000000
1.000000 0.541875 0.000000
1.000000 0.541875 0.000000
1.000000 0.541875 0.000000
0.000000 0.573750 0.000000
0.035000 0.573750 0.000000
0.070000 0.573750 0.000000
0.105000 0.573750 0.000000
0.140000 0.573750 0.000000
0.175000 0.573750 0.000000
0.210000 0.573750 0.000000
0.245000 0.573750 0.000000
0.280000 0.573750 0.000000
0.315000 0.573750 0.000000
0.350000 0.573750 0.000000
0.385000 0.573750 0.000000
0.420000 0.573750 0.000000
0.455000 0.573750 0.000000
0.490000 0.573750 0.000000
0.525000 0.573750 0.000000
0.560000 0.573750 0.000000
0.595000 0.573750 0.000000
0.630000 0.573750 0.000000
0.665000 0.573750 0.000000
0.700000 0.573750 0.000000
0.735000 0.573750 0.000000
0.770000 0.573750 0.000000
0.805000 0.573750 0.000000
0.840000 0.573750 0.000000
0.875000 0.573750 0.000000
0.910000 0.573750 0.000000
0.945000 0.573750 0.000000
0.980000 0.573750 0.000000
1.000000 0.573750 0.000000
1.000000 0.573750 0.000000
1.000000 0.573750 0.000000
1.000000 0.573750 0.000000
0.000000 0.605625 0.000000
0.035000 0.605625 0.000000
0.070000 0.605625 0.000000
0.105000 0.605625 0.000000
0.140000 0.605625 0.000000
0.175000 0.605625 0.000000
0.210000 0.605625 0.000000
0.245000 0.605625 0.000000
0.280000 0.605625 0.000000
0.315000 0.605625 0.000000
0.350000 0.605625 0.000000
0.385000 0.605625 0.000000
0.420000 0.605625 0.000000
0.455000 0.605625 0.000000
0.490000 0.605625 0.000000
0.525000 0.605625 0.000000
0.560000 0.605625 0.000000
0.595000 0.605625 0.000000
0.630000 0.605625 0.000000
0.665000 0.605625 0.000000
0.700000 0.605625 0.000000
0.735000 0.605625 0.000000
0.770000 0.605625 0.000000
0.805000 0.605625 0.000000
0.840000 0.605625 0.000000
0.875000 0.605625 0.000000
0.910000 0.605625 0.000000
0.945000 0.605625 0.000000
0.980000 0.605625 0.000000
1.000000 0.605625 0.000000
1.000000 0.605625 0.000000
1.000000 0.605625 0.000000
1.000000 0.605625 0.000000
0.000000 0.637500 0.000000
0.035000 0.637500 0.000000
0.070000 0.637500 0.000000
0.105000 0.637500 0.000000
0.140000 0.637500 0.000000
0.175000 0.637500 0.000000
0.210000 0.637500 0.000000
0.245000 0.637500 0.000000
0.280000 0.637500 0.000000
0.315000 0.637500 0.000000
0.350000 0.637500 0.000000
0.385000 0.637500 0.000000
0.420000 0.637500 0.000000
0.455000 0.637500 0.000000
0.490000 0.637500 0.000000
0.525000 0.637500 0.000000
0.560000 0.637500 0.000000
0.595000 0.637500 0.000000
0.630000 0.637500 0.000000
0.665000 0.637500 0.000000
0.700000 0.637500 0.000000
0.735000 0.637500 0.000000
0.770000 0.637500 0.000000
0.805000 0.637500 0.000000
0.840000 0.637500 0.000000
0.875000 0.637500 0.000000
0.910000 0.637500 0.000000
0.945000 0.637500 0.000000
0.980000 0.637500 0.000000
1.000000 0.637500 0.000000
1.000000 0.637500 0.000000
1.000000 0.637500 0.000000
1.000000 0.637500 0.000000
0.000000 0.669375 0.000000
0.035000 0.669375 0.000000
0.070000 0.669375 0.000000
0.105000 0.669375 0.000000
0.140000 0.669375 0.000000
0.175000 0.669375 0.000000
0.210000 0.669375 0.000000
0.245000 0.669375 0.000000
0.280000 0.669375 0.000000
0.315000 0.669375 0.000000
0.350000 0.669375 0.000000
0.385000 0.669375 0.000000
0.420000 0.669375 0.000000
0.455000 0.669375 0.000000
0.490000 0.669375 0.000000
0.525000 0.669375 0.000000
0.560000 0.669375 0.000000
0.595000 0.669375 0.000000
0.630000 0.669375 0.000000
0.665000 0.669375 0.000000
0.700000 0.669375 0.000000
0.735000 0.669375 0.000000
0.770000 0.669375 0.000000
0.805000 0.669375 0.000000
0.840000 0.669375 0.000000
0.875000 0.669375 0.000000
0.910000 0.669375 0.000000
0.945000 0.669375 0.000000
0.980000 0.669375 0.000000
1.000000 0.669375 0.000000
1.000000 0.669375 0.000000
1.000000 0.669375 0.000000
1.000000 0.669375 0.000000
0.000000 0.701250 0.000000
0.035000 0.701250 0.000000
0.070000 0.701250 0.000000
0.105000 0.701250 0.000000
0.140000 0.701250 0.000000
0.175000 0.701250 0.000000
0.210000 0.701250 0.000000
0.245000 0.701250 0.000000
0.280000 0.701250 0.000000
0.315000 0.701250 0.000000
0.350000 0.701250 0.000000
0.385000 0.701250 0.000000
0.420000 0.701250 0.000000
0.455000 0.701250 0.000000
0.490000 0.701250 0.000000
0.525000 0.701250 0.000000
0.560000 0.701250 0.000000
0.595000 0.701250 0.000000
0.630000 0.701250 0.000000
0.665000 0.701250 0.000000
0.700000 0.701250 0.000000
0.735000 0.701250 0.000000
0.770000 0.701250 0.000000
0.805000 0.701250 0.000000
0.840000 0.701250 0.000000
0.875000 0.701250 0.000000
0.910000 0.701250 0.000000
0.945000 0.701250 0.000000
0.980000 0.701250 0.000000
1.000000 0.701250 0.000000
1.000000 0.701250 0.000000
1.000000 0.701250 0.000000
1.000000 0.701250 0.000000
0.000000 0.733125 0.000000
0.035000 0.733125 0.000000
0.070000 0.733125 0.000000
0.105000 0.733125 0.000000
0.140000 0.733125 0.000000
0.175000 0.733125 0.000000
0.210000 0.733125 0.000000
0.245000 0.733125 0.000000
0.280000 0.733125 0.000000
0.315000 0.733125 0.000000
0.350000 0.733125 0.000000
0.385000 0.733125 0.000000
0.420000 0.733125 0.000000
0.455000 0.733125 0.000000
0.490000 0.733125 0.000000
0.525000 0.733125 0.000000
0.560000 0.733125 0.000000
0.595000 0.733125 0.000000
0.630000 0.733125 0.000000
0.665000 0.733125 0.000000
0.700000 0.733125 0.000000
0.735000 0.733125 0.000000
0.770000 0.733125 0.000000
0.805000 0.733125 0.000000
0.840000 0.733125 0.000000
0.875000 0.733125 0.000000
0.910000 0.733125 0.000000
0.945000 0.733125 0.000000
0.980000 0.733125 0.000000
1.000000 0.733125 0.000000
1.000000 0.733125 0.000000
1.000000 0.733125 0.000000
1.000000 0.733125 0.000000
0.000000 0.765000 0.000000
0.035000 0.765000 0.000000
0.070000 0.765000 0.000000
0.105000 0.765000 0.000000
0.140000 0.765000 0.000000
0.175000 0.765000 0.000000
0.210000 0.765000 0.000000
0.245000 0.765000 0.000000
0.280000 0.765000 0.000000
0.315000 0.765000 0.000000
0.350000 0.765000 0.000000
0.385000 0.765000 0.000000
0.420000 0.765000 0.000000
0.455000 0.765000 0.000000
0.490000 0.765000 0.000000
0.525000 0.765000 0.000000
0.560000 0.765000 0.000000
0.595000 0.765000 0.000000
0.630000 0.765000 0.000000
0.665000 0.765000 0.000000
0.700000 0.765000 0.000000
0.735000 0.765000 0.000000
0.770000 0.765000 0.000000
0.805000 0.765000 0.000000
0.840000 0.765000 0.000000
0.875000 0.765000 0.000000
0.910000 0.765000 0.000000
0.945000 0.765000 0.000000
0.980000 0.765000 0.000000
1.000000 0.765000 0.000000
1.000000 0.765000 0.000000
1.000000 0.765000 0.000000
1.000000 0.765000 0.000000
0.000000 0.796875 0.000000
0.035000 0.796875 0.000000
0.070000 0.796875 0.000000
0.105000 0.796875 0.000000
0.140000 0.796875 0.000000
0.175000 0.796875 0.000000
0.210000 0.796875 0.000000
0.245000 0.796875 0.000000
0.280000 0.796875 0.000000
0.315000 0.796875 0.000000
0.350000 0.796875 0.000000
0.385000 0.796875 0.000000
0.420000 0.796875 0.000000
0.455000 0.796875 0.000000
0.490000 0.796875 0.000000
0.525000 0.796875 0.000000
0.560000 0.796875 0.000000
0.595000 0.796875 0.000000
0.630000 0.796875 0.000000
0.665000 0.796875 0.000000
0.700000 0.796875 0.000000
0.735000 0.796875 0.000000
0.770000 0.796875 0.000000
0.805000 0.796875 0.000000
0.840000 0.796875 0.000000
0.875000 0.796875 0.000000
0.910000 0.796875 0.000000
0.945000 0.796875 0.000000
0.980000 0.796875 0.000000
1.000000 0.796875 0.000000
1.000000 0.796875 0.000000
1.000000 0.796875 0.000000
1.000000 0.796875 0.000000
0.000000 0.828750 0.000000
0.035000 0.828750 0.000000
0.070000 0.828750 0.000000
0.105000 0.828750 0.000000
0.140000 0.828750 0.000000
0.175000 0.828750 0.000000
0.210000 0.828750 0.000000
0.245000 0.828750 0.000000
0.280000 0.828750 0.000000
0.315000 0.828750 0.000000
0.350000 0.828750 0.000000
0.385000 0.828750 0.000000
0.420000 0.828750 0.000000
0.455000 0.828750 0.000000
0.490000 0.828750 0.000000
0.525000 0.828750 0.000000
0.560000 0.828750 0.000000
0.595000 0.828750 0.000000
0.630000 0.828750 0.000000
0.665000 0.828750 0.000000
0.700000 0.828750 0.000000
0.735000 0.828750 0.000000
0.770000 0.828750 0.000000
0.805000 0.828750 0.000000
0.840000 0.828750 0.000000
0.875000 0.828750 0.000000
