src/cutvoke/assets/luts/warm.cube
# Created by CutVoke generate_luts.py
TITLE warm
LUT_3D_SIZE 9
DOMAIN_MIN 0.0 0.0 0.0
DOMAIN_MAX 1.0 1.0 1.0
0.000000 0.000000 0.000000
0.140000 0.000000 0.000000
0.280000 0.000000 0.000000
0.420000 0.000000 0.000000
0.560000 0.000000 0.000000
0.700000 0.000000 0.000000
0.840000 0.000000 0.000000
0.980000 0.000000 0.000000
1.000000 0.000000 0.000000
0.000000 0.127500 0.000000
0.140000 0.127500 0.000000
0.280000 0.127500 0.000000
0.420000 0.127500 0.000000
0.560000 0.127500 0.000000
0.700000 0.127500 0.000000
0.840000 0.127500 0.000000
0.980000 0.127500 0.000000
1.000000 0.127500 0.000000
0.000000 0.255000 0.000000
0.140000 0.255000 0.000000
0.280000 0.255000 0.000000
0.420000 0.255000 0.000000
0.560000 0.255000 0.000000
0.700000 0.255000 0.000000
0.840000 0.255000 0.000000
0.980000 0.255000 0.000000
1.000000 0.255000 0.000000
0.000000 0.382500 0.000000
0.140000 0.382500 0.000000
0.280000 0.382500 0.000000
0.420000 0.382500 0.000000
0.560000 0.382500 0.000000
0.700000 0.382500 0.000000
0.840000 0.382500 0.000000
0.980000 0.382500 0.000000
1.000000 0.382500 0.000000
0.000000 0.510000 0.000000
0.140000 0.510000 0.000000
0.280000 0.510000 0.000000
0.420000 0.510000 0.000000
0.560000 0.510000 0.000000
0.700000 0.510000 0.000000
0.840000 0.510000 0.000000
0.980000 0.510000 0.000000
1.000000 0.510000 0.000000
0.000000 0.637500 0.000000
0.140000 0.637500 0.000000
0.280000 0.637500 0.000000
0.420000 0.637500 0.000000
0.560000 0.637500 0.000000
0.700000 0.637500 0.000000
0.840000 0.637500 0.000000
0.980000 0.637500 0.000000
1.000000 0.637500 0.000000
0.000000 0.765000 0.000000
0.140000 0.765000 0.000000
0.280000 0.765000 0.000000
0.420000 0.765000 0.000000
0.560000 0.765000 0.000000
0.700000 0.765000 0.000000
0.840000 0.765000 0.000000
0.980000 0.765000 0.000000
1.000000 0.765000 0.000000
0.000000 0.892500 0.000000
0.140000 0.892500 0.000000
0.280000 0.892500 0.000000
0.420000 0.892500 0.000000
0.560000 0.892500 0.000000
0.700000 0.892500 0.000000
0.840000 0.892500 0.000000
0.980000 0.892500 0.000000
1.000000 0.892500 0.000000
0.000000 1.000000 0.000000
0.140000 1.000000 0.000000
0.280000 1.000000 0.000000
0.420000 1.000000 0.000000
0.560000 1.000000 0.000000
0.700000 1.000000 0.000000
0.840000 1.000000 0.000000
0.980000 1.000000 0.000000
1.000000 1.000000 0.000000
0.000000 0.000000 0.110000
0.140000 0.000000 0.110000
0.280000 0.000000 0.110000
0.420000 0.000000 0.110000
0.560000 0.000000 0.110000
0.700000 0.000000 0.110000
0.840000 0.000000 0.110000
0.980000 0.000000 0.110000
1.000000 0.000000 0.110000
0.000000 0.127500 0.110000
0.140000 0.127500 0.110000
0.280000 0.127500 0.110000
0.420000 0.127500 0.110000
0.560000 0.127500 0.110000
0.700000 0.127500 0.110000
0.840000 0.127500 0.110000
0.980000 0.127500 0.110000
1.000000 0.127500 0.110000
0.000000 0.255000 0.110000
0.140000 0.255000 0.110000
0.280000 0.255000 0.110000
0.420000 0.255000 0.110000
0.560000 0.255000 0.110000
0.700000 0.255000 0.110000
0.840000 0.255000 0.110000
0.980000 0.255000 0.110000
1.000000 0.255000 0.110000
0.000000 0.382500 0.110000
0.140000 0.382500 0.110000
0.280000 0.382500 0.110000
0.420000 0.382500 0.110000
0.560000 0.382500 0.110000
0.700000 0.382500 0.110000
0.840000 0.382500 0.110000
0.980000 0.382500 0.110000
1.000000 0.382500 0.110000
0.000000 0.510000 0.110000
0.140000 0.510000 0.110000
0.280000 0.510000 0.110000
0.420000 0.510000 0.110000
0.560000 0.510000 0.110000
0.700000 0.510000 0.110000
0.840000 0.510000 0.110000
0.980000 0.510000 0.110000
1.000000 0.510000 0.110000
0.000000 0.637500 0.110000
0.140000 0.637500 0.110000
0.280000 0.637500 0.110000
0.420000 0.637500 0.110000
0.560000 0.637500 0.110000
0.700000 0.637500 0.110000
0.840000 0.637500 0.110000
0.980000 0.637500 0.110000
1.000000 0.637500 0.110000
0.000000 0.765000 0.110000
0.140000 0.765000 0.110000
0.280000 0.765000 0.110000
0.420000 0.765000 0.110000
0.560000 0.765000 0.110000
0.700000 0.765000 0.110000
0.840000 0.765000 0.110000
0.980000 0.765000 0.110000
1.000000 0.765000 0.110000
0.000000 0.892500 0.110000
0.140000 0.892500 0.110000
0.280000 0.892500 0.110000
0.420000 0.892500 0.110000
0.560000 0.892500 0.110000
0.700000 0.892500 0.110000
0.840000 0.892500 0.110000
0.980000 0.892500 0.110000
1.000000 0.892500 0.110000
0.000000 1.000000 0.110000
0.140000 1.000000 0.110000
0.280000 1.000000 0.110000
0.420000 1.000000 0.110000
0.560000 1.000000 0.110000
0.700000 1.000000 0.110000
0.840000 1.000000 0.110000
0.980000 1.000000 0.110000
1.000000 1.000000 0.110000
0.000000 0.000000 0.220000
0.140000 0.000000 0.220000
0.280000 0.000000 0.220000
0.420000 0.000000 0.220000
0.560000 0.000000 0.220000
0.700000 0.000000 0.220000
0.840000 0.000000 0.220000
0.980000 0.000000 0.220000
1.000000 0.000000 0.220000
0.000000 0.127500 0.220000
0.140000 0.127500 0.220000
0.280000 0.127500 0.220000
0.420000 0.127500 0.220000
0.560000 0.127500 0.220000
0.700000 0.127500 0.220000
0.840000 0.127500 0.220000
0.980000 0.127500 0.220000
1.000000 0.127500 0.220000
0.000000 0.255000 0.220000
0.140000 0.255000 0.220000
0.280000 0.255000 0.220000
0.420000 0.255000 0.220000
0.560000 0.255000 0.220000
0.700000 0.255000 0.220000
0.840000 0.255000 0.220000
0.980000 0.255000 0.220000
1.000000 0.255000 0.220000
0.000000 0.382500 0.220000
0.140000 0.382500 0.220000
0.280000 0.382500 0.220000
0.420000 0.382500 0.220000
0.560000 0.382500 0.220000
0.700000 0.382500 0.220000
0.840000 0.382500 0.220000
0.980000 0.382500 0.220000
1.000000 0.382500 0.220000
0.000000 0.510000 0.220000
0.140000 0.510000 0.220000
0.280000 0.510000 0.220000
0.420000 0.510000 0.220000
0.560000 0.510000 0.220000
0.700000 0.510000 0.220000
0.840000 0.510000 0.220000
0.980000 0.510000 0.220000
1.000000 0.510000 0.220000
0.000000 0.637500 0.220000
0.140000 0.637500 0.220000
0.280000 0.637500 0.220000
0.420000 0.637500 0.220000
0.560000 0.637500 0.220000
0.700000 0.637500 0.220000
0.840000 0.637500 0.220000
0.980000 0.637500 0.220000
1.000000 0.637500 0.220000
0.000000 0.765000 0.220000
0.140000 0.765000 0.220000
0.280000 0.765000 0.220000
0.420000 0.765000 0.220000
0.560000 0.765000 0.220000
0.700000 0.765000 0.220000
0.840000 0.765000 0.220000
0.980000 0.765000 0.220000
1.000000 0.765000 0.220000
0.000000 0.892500 0.220000
0.140000 0.892500 0.220000
0.280000 0.892500 0.220000
0.420000 0.892500 0.220000
0.560000 0.892500 0.220000
0.700000 0.892500 0.220000
0.840000 0.892500 0.220000
0.980000 0.892500 0.220000
1.000000 0.892500 0.220000
0.000000 1.000000 0.220000
0.140000 1.000000 0.220000
0.280000 1.000000 0.220000
0.420000 1.000000 0.220000
0.560000 1.000000 0.220000
0.700000 1.000000 0.220000
0.840000 1.000000 0.220000
0.980000 1.000000 0.220000
1.000000 1.000000 0.220000
0.000000 0.000000 0.330000
0.140000 0.000000 0.330000
0.280000 0.000000 0.330000
0.420000 0.000000 0.330000
0.560000 0.000000 0.330000
0.700000 0.000000 0.330000
0.840000 0.000000 0.330000
0.980000 0.000000 0.330000
1.000000 0.000000 0.330000
0.000000 0.127500 0.330000
0.140000 0.127500 0.330000
0.280000 0.127500 0.330000
0.420000 0.127500 0.330000
0.560000 0.127500 0.330000
0.700000 0.127500 0.330000
0.840000 0.127500 0.330000
0.980000 0.127500 0.330000
1.000000 0.127500 0.330000
0.000000 0.255000 0.330000
0.140000 0.255000 0.330000
0.280000 0.255000 0.330000
0.420000 0.255000 0.330000
0.560000 0.255000 0.330000
0.700000 0.255000 0.330000
0.840000 0.255000 0.330000
0.980000 0.255000 0.330000
1.000000 0.255000 0.330000
0.000000 0.382500 0.330000
0.140000 0.382500 0.330000
0.280000 0.382500 0.330000
0.420000 0.382500 0.330000
0.560000 0.382500 0.330000
0.700000 0.382500 0.330000
0.840000 0.382500 0.330000
0.980000 0.382500 0.330000
1.000000 0.382500 0.330000
0.000000 0.510000 0.330000
0.140000 0.510000 0.330000
0.280000 0.510000 0.330000
0.420000 0.510000 0.330000
0.560000 0.510000 0.330000
0.700000 0.510000 0.330000
0.840000 0.510000 0.330000
0.980000 0.510000 0.330000
1.000000 0.510000 0.330000
0.000000 0.637500 0.330000
0.140000 0.637500 0.330000
0.280000 0.637500 0.330000
0.420000 0.637500 0.330000
0.560000 0.637500 0.330000
0.700000 0.637500 0.330000
0.840000 0.637500 0.330000
0.980000 0.637500 0.330000
1.000000 0.637500 0.330000
0.000000 0.765000 0.330000
0.140000 0.765000 0.330000
0.280000 0.765000 0.330000
0.420000 0.765000 0.330000
0.560000 0.765000 0.330000
0.700000 0.765000 0.330000
0.840000 0.765000 0.330000
0.980000 0.765000 0.330000
1.000000 0.765000 0.330000
0.000000 0.892500 0.330000
0.140000 0.892500 0.330000
0.280000 0.892500 0.330000
0.420000 0.892500 0.330000
0.560000 0.892500 0.330000
0.700000 0.892500 0.330000
0.840000 0.892500 0.330000
0.980000 0.892500 0.330000
1.000000 0.892500 0.330000
0.000000 1.000000 0.330000
0.140000 1.000000 0.330000
0.280000 1.000000 0.330000
0.420000 1.000000 0.330000
0.560000 1.000000 0.330000
0.700000 1.000000 0.330000
0.840000 1.000000 0.330000
0.980000 1.000000 0.330000
1.000000 1.000000 0.330000
0.000000 0.000000 0.440000
0.140000 0.000000 0.440000
0.280000 0.000000 0.440000
0.420000 0.000000 0.440000
0.560000 0.000000 0.440000
0.700000 0.000000 0.440000
0.840000 0.000000 0.440000
0.980000 0.000000 0.440000
1.000000 0.000000 0.440000
0.000000 0.127500 0.440000
0.140000 0.127500 0.440000
0.280000 0.127500 0.440000
0.420000 0.127500 0.440000
0.560000 0.127500 0.440000
0.700000 0.127500 0.440000
0.840000 0.127500 0.440000
0.980000 0.127500 0.440000
1.000000 0.127500 0.440000
0.000000 0.255000 0.440000
0.140000 0.255000 0.440000
0.280000 0.255000 0.440000
0.420000 0.255000 0.440000
0.560000 0.255000 0.440000
0.700000 0.255000 0.440000
0.840000 0.255000 0.440000
0.980000 0.255000 0.440000
1.000000 0.255000 0.440000
0.000000 0.382500 0.440000
0.140000 0.382500 0.440000
0.280000 0.382500 0.440000
0.420000 0.382500 0.440000
0.560000 0.382500 0.440000
0.700000 0.382500 0.440000
0.840000 0.382500 0.440000
0.980000 0.382500 0.440000
1.000000 0.382500 0.440000
0.000000 0.510000 0.440000
0.140000 0.510000 0.440000
0.280000 0.510000 0.440000
0.420000 0.510000 0.440000
0.560000 0.510000 0.440000
0.700000 0.510000 0.440000
0.840000 0.510000 0.440000
0.980000 0.510000 0.440000
1.000000 0.510000 0.440000
0.000000 0.637500 0.440000
0.140000 0.637500 0.440000
0.280000 0.637500 0.440000
0.420000 0.637500 0.440000
0.560000 0.637500 0.440000
0.700000 0.637500 0.440000
0.840000 0.637500 0.440000
0.980000 0.637500 0.440000
1.000000 0.637500 0.440000
0.000000 0.765000 0.440000
0.140000 0.765000 0.440000
0.280000 0.765000 0.440000
0.420000 0.765000 0.440000
0.560000 0.765000 0.440000
0.700000 0.765000 0.440000
0.840000 0.765000 0.440000
0.980000 0.765000 0.440000
1.000000 0.765000 0.440000
0.000000 0.892500 0.440000
0.140000 0.892500 0.440000
0.280000 0.892500 0.440000
0.420000 0.892500 0.440000
0.560000 0.892500 0.440000
0.700000 0.892500 0.440000
0.840000 0.892500 0.440000
0.980000 0.892500 0.440000
1.000000 0.892500 0.440000
0.000000 1.000000 0.440000
0.140000 1.000000 0.440000
0.280000 1.000000 0.440000
0.420000 1.000000 0.440000
0.560000 1.000000 0.440000
0.700000 1.000000 0.440000
0.840000 1.000000 0.440000
0.980000 1.000000 0.440000
1.000000 1.000000 0.440000
0.000000 0.000000 0.550000
0.140000 0.000000 0.550000
0.280000 0.000000 0.550000
0.420000 0.000000 0.550000
0.560000 0.000000 0.550000
0.700000 0.000000 0.550000
0.840000 0.000000 0.550000
0.980000 0.000000 0.550000
1.000000 0.000000 0.550000
0.000000 0.127500 0.550000
0.140000 0.127500 0.550000
0.280000 0.127500 0.550000
0.420000 0.127500 0.550000
0.560000 0.127500 0.550000
0.700000 0.127500 0.550000
0.840000 0.127500 0.550000
0.980000 0.127500 0.550000
1.000000 0.127500 0.550000
0.000000 0.255000 0.550000
0.140000 0.255000 0.550000
0.280000 0.255000 0.550000
0.420000 0.255000 0.550000
0.560000 0.255000 0.550000
0.700000 0.255000 0.550000
0.840000 0.255000 0.550000
0.980000 0.255000 0.550000
1.000000 0.255000 0.550000
0.000000 0.382500 0.550000
0.140000 0.382500 0.550000
0.280000 0.382500 0.550000
0.420000 0.382500 0.550000
0.560000 0.382500 0.550000
0.700000 0.382500 0.550000
0.840000 0.382500 0.550000
0.980000 0.382500 0.550000
1.000000 0.382500 0.550000
0.000000 0.510000 0.550000
0.140000 0.510000 0.550000
0.280000 0.510000 0.550000
0.420000 0.510000 0.550000
0.560000 0.510000 0.550000
0.700000 0.510000 0.550000
0.840000 0.510000 0.550000
0.980000 0.510000 0.550000
1.000000 0.510000 0.550000
0.000000 0.637500 0.550000
0.140000 0.637500 0.550000
0.280000 0.637500 0.550000
0.420000 0.637500 0.550000
0.560000 0.637500 0.550000
0.700000 0.637500 0.550000
0.840000 0.637500 0.550000
0.980000 0.637500 0.550000
1.000000 0.637500 0.550000
0.000000 0.765000 0.550000
0.140000 0.765000 0.550000
0.280000 0.765000 0.550000
0.420000 0.765000 0.550000
0.560000 0.765000 0.550000
0.700000 0.765000 0.550000
0.840000 0.765000 0.550000
0.980000 0.765000 0.550000
1.000000 0.765000 0.550000
0.000000 0.892500 0.550000
0.140000 0.892500 0.550000
0.280000 0.892500 0.550000
0.420000 0.892500 0.550000
0.560000 0.892500 0.550000
0.700000 0.892500 0.550000
0.840000 0.892500 0.550000
0.980000 0.892500 0.550000
1.000000 0.892500 0.550000
0.000000 1.000000 0.550000
0.140000 1.000000 0.550000
0.280000 1.000000 0.550000
0.420000 1.000000 0.550000
0.560000 1.000000 0.550000
0.700000 1.000000 0.550000
0.840000 1.000000 0.550000
0.980000 1.000000 0.550000
1.000000 1.000000 0.550000
0.000000 0.000000 0.660000
0.140000 0.000000 0.660000
0.280000 0.000000 0.660000
0.420000 0.000000 0.660000
0.560000 0.000000 0.660000
0.700000 0.000000 0.660000
0.840000 0.000000 0.660000
0.980000 0.000000 0.660000
1.000000 0.000000 0.660000
0.000000 0.127500 0.660000
0.140000 0.127500 0.660000
0.280000 0.127500 0.660000
0.420000 0.127500 0.660000
0.560000 0.127500 0.660000
0.700000 0.127500 0.660000
0.840000 0.127500 0.660000
0.980000 0.127500 0.660000
1.000000 0.127500 0.660000
0.000000 0.255000 0.660000
0.140000 0.255000 0.660000
0.280000 0.255000 0.660000
0.420000 0.255000 0.660000
0.560000 0.255000 0.660000
0.700000 0.255000 0.660000
0.840000 0.255000 0.660000
0.980000 0.255000 0.660000
1.000000 0.255000 0.660000
0.000000 0.382500 0.660000
0.140000 0.382500 0.660000
0.280000 0.382500 0.660000
0.420000 0.382500 0.660000
0.560000 0.382500 0.660000
0.700000 0.382500 0.660000
0.840000 0.382500 0.660000
0.980000 0.382500 0.660000
1.000000 0.382500 0.660000
0.000000 0.510000 0.660000
0.140000 0.510000 0.660000
0.280000 0.510000 0.660000
0.420000 0.510000 0.660000
0.560000 0.510000 0.660000
0.700000 0.510000 0.660000
0.840000 0.510000 0.660000
0.980000 0.510000 0.660000
1.000000 0.510000 0.660000
0.000000 0.637500 0.660000
0.140000 0.637500 0.660000
0.280000 0.637500 0.660000
0.420000 0.637500 0.660000
0.560000 0.637500 0.660000
0.700000 0.637500 0.660000
0.840000 0.637500 0.660000
0.980000 0.637500 0.660000
1.000000 0.637500 0.660000
0.000000 0.765000 0.660000
0.140000 0.765000 0.660000
0.280000 0.765000 0.660000
0.420000 0.765000 0.660000
0.560000 0.765000 0.660000
0.700000 0.765000 0.660000
0.840000 0.765000 0.660000
0.980000 0.765000 0.660000
1.000000 0.765000 0.660000
0.000000 0.892500 0.660000
0.140000 0.892500 0.660000
0.280000 0.892500 0.660000
0.420000 0.892500 0.660000
0.560000 0.892500 0.660000
0.700000 0.892500 0.660000
0.840000 0.892500 0.660000
0.980000 0.892500 0.660000
1.000000 0.892500 0.660000
0.000000 1.000000 0.660000
0.140000 1.000000 0.660000
0.280000 1.000000 0.660000
0.420000 1.000000 0.660000
0.560000 1.000000 0.660000
0.700000 1.000000 0.660000
0.840000 1.000000 0.660000
0.980000 1.000000 0.660000
1.000000 1.000000 0.660000
0.000000 0.000000 0.770000
0.140000 0.000000 0.770000
0.280000 0.000000 0.770000
0.420000 0.000000 0.770000
0.560000 0.000000 0.770000
0.700000 0.000000 0.770000
0.840000 0.000000 0.770000
0.980000 0.000000 0.770000
1.000000 0.000000 0.770000
0.000000 0.127500 0.770000
0.140000 0.127500 0.770000
0.280000 0.127500 0.770000
0.420000 0.127500 0.770000
0.560000 0.127500 0.770000
0.700000 0.127500 0.770000
0.840000 0.127500 0.770000
0.980000 0.127500 0.770000
1.000000 0.127500 0.770000
0.000000 0.255000 0.770000
0.140000 0.255000 0.770000
0.280000 0.255000 0.770000
0.420000 0.255000 0.770000
0.560000 0.255000 0.770000
0.700000 0.255000 0.770000
0.840000 0.255000 0.770000
0.980000 0.255000 0.770000
1.000000 0.255000 0.770000
0.000000 0.382500 0.770000
0.140000 0.382500 0.770000
0.280000 0.382500 0.770000
0.420000 0.382500 0.770000
0.560000 0.382500 0.770000
0.700000 0.382500 0.770000
0.840000 0.382500 0.770000
0.980000 0.382500 0.770000
1.000000 0.382500 0.770000
0.000000 0.510000 0.770000
0.140000 0.510000 0.770000
0.280000 0.510000 0.770000
0.420000 0.510000 0.770000
0.560000 0.510000 0.770000
0.700000 0.510000 0.770000
0.840000 0.510000 0.770000
0.980000 0.510000 0.770000
1.000000 0.510000 0.770000
0.000000 0.637500 0.770000
0.140000 0.637500 0.770000
0.280000 0.637500 0.770000
0.420000 0.637500 0.770000
0.560000 0.637500 0.770000
0.700000 0.637500 0.770000
0.840000 0.637500 0.770000
0.980000 0.637500 0.770000
1.000000 0.637500 0.770000
0.000000 0.765000 0.770000
0.140000 0.765000 0.770000
0.280000 0.765000 0.770000
0.420000 0.765000 0.770000
0.560000 0.765000 0.770000
0.700000 0.765000 0.770000
0.840000 0.765000 0.770000
0.980000 0.765000 0.770000
1.000000 0.765000 0.770000
0.000000 0.892500 0.770000
0.140000 0.892500 0.770000
0.280000 0.892500 0.770000
0.420000 0.892500 0.770000
0.560000 0.892500 0.770000
0.700000 0.892500 0.770000
0.840000 0.892500 0.770000
0.980000 0.892500 0.770000
1.000000 0.892500 0.770000
0.000000 1.000000 0.770000
0.140000 1.000000 0.770000
0.280000 1.000000 0.770000
0.420000 1.000000 0.770000
0.560000 1.000000 0.770000
0.700000 1.000000 0.770000
0.840000 1.000000 0.770000
0.980000 1.000000 0.770000
1.000000 1.000000 0.770000
0.000000 0.000000 0.880000
0.140000 0.000000 0.880000
0.280000 0.000000 0.880000
0.420000 0.000000 0.880000
0.560000 0.000000 0.880000
0.700000 0.000000 0.880000
0.840000 0.000000 0.880000
0.980000 0.000000 0.880000
1.000000 0.000000 0.880000
0.000000 0.127500 0.880000
0.140000 0.127500 0.880000
0.280000 0.127500 0.880000
0.420000 0.127500 0.880000
0.560000 0.127500 0.880000
0.700000 0.127500 0.880000
0.840000 0.127500 0.880000
0.980000 0.127500 0.880000
1.000000 0.127500 0.880000
0.000000 0.255000 0.880000
0.140000 0.255000 0.880000
0.280000 0.255000 0.880000
0.420000 0.255000 0.880000
0.560000 0.255000 0.880000
0.700000 0.255000 0.880000
0.840000 0.255000 0.880000
0.980000 0.255000 0.880000
1.000000 0.255000 0.880000
0.000000 0.382500 0.880000
0.140000 0.382500 0.880000
0.280000 0.382500 0.880000
0.420000 0.382500 0.880000
0.560000 0.382500 0.880000
0.700000 0.382500 0.880000
0.840000 0.382500 0.880000
0.980000 0.382500 0.880000
1.000000 0.382500 0.880000
0.000000 0.510000 0.880000
0.140000 0.510000 0.880000
0.280000 0.510000 0.880000
0.420000 0.510000 0.880000
0.560000 0.510000 0.880000
0.700000 0.510000 0.880000
0.840000 0.510000 0.880000
0.980000 0.510000 0.880000
1.000000 0.510000 0.880000
0.000000 0.637500 0.880000
0.140000 0.637500 0.880000
0.280000 0.637500 0.880000
0.420000 0.637500 0.880000
0.560000 0.637500 0.880000
0.700000 0.637500 0.880000
0.840000 0.637500 0.880000
0.980000 0.637500 0.880000
1.000000 0.637500 0.880000
0.000000 0.765000 0.880000
0.140000 0.765000 0.880000
0.280000 0.765000 0.880000
0.420000 0.765000 0.880000
0.560000 0.765000 0.880000
0.700000 0.765000 0.880000
0.840000 0.765000 0.880000
0.980000 0.765000 0.880000
1.000000 0.765000 0.880000
0.000000 0.892500 0.880000
0.140000 0.892500 0.880000
0.280000 0.892500 0.880000
0.420000 0.892500 0.880000
0.560000 0.892500 0.880000
0.700000 0.892500 0.880000
0.840000 0.892500 0.880000
0.980000 0.892500 0.880000
1.000000 0.892500 0.880000
0.000000 1.000000 0.880000
0.140000 1.000000 0.880000
0.280000 1.000000 0.880000
0.420000 1.000000 0.880000
0.560000 1.000000 0.880000
0.700000 1.000000 0.880000
0.840000 1.000000 0.880000
0.980000 1.000000 0.880000
1.000000 1.000000 0.880000
